; generated by Slic3r 1.2.9 on 2018-07-17 at 14:03:36

; external perimeters extrusion width = 0.50mm
; perimeters extrusion width = 0.72mm
; infill extrusion width = 0.72mm
; solid infill extrusion width = 0.72mm
; top infill extrusion width = 0.72mm

M107
M104 S200 ; set temperature
G28 ; home all axes
G1 Z5 F5000 ; lift nozzle

M109 S200 ; wait for temperature to be reached
G21 ; set units to millimeters
G90 ; use absolute coordinates
M82 ; use absolute distances for extrusion
G92 E0
G1 Z0.350 F7800.000
G1 E-2.00000 F2400.00000
G92 E0
G1 X32.497 Y21.489 F7800.000
G1 E2.00000 F2400.00000
G1 X32.826 Y21.024 E2.01763 F1800.000
G1 X33.140 Y20.637 E2.03304
G1 X33.679 Y20.073 E2.05720
G1 X33.958 Y19.819 E2.06886
G1 X34.510 Y19.382 E2.09064
G1 X35.179 Y18.947 E2.11533
G1 X35.522 Y18.759 E2.12744
G1 X36.102 Y18.487 E2.14725
G1 X36.880 Y18.206 E2.17286
G1 X37.453 Y18.054 E2.19119
G1 X37.899 Y17.967 E2.20524
G1 X38.323 Y17.908 E2.21851
G1 X38.984 Y17.860 E2.23900
G1 X135.451 Y17.860 E5.22383
G1 X136.241 Y17.922 E5.24834 F1800.000
G1 X136.953 Y18.045 E5.27068
G1 X137.581 Y18.210 E5.29078
G1 X137.942 Y18.330 E5.30256
G1 X138.625 Y18.611 E5.32542
G1 X139.313 Y18.973 E5.34945
G1 X139.939 Y19.382 E5.37259
G1 X140.528 Y19.852 E5.39591
G1 X141.055 Y20.358 E5.41852
G1 X141.531 Y20.907 E5.44100
G1 X141.964 Y21.507 E5.46390
G1 X142.331 Y22.130 E5.48628
G1 X142.671 Y22.856 E5.51107
G1 X142.922 Y23.559 E5.53417
G1 X143.105 Y24.279 E5.55717
G1 X143.220 Y25.001 E5.57979
G1 X143.272 Y25.904 E5.60775
G1 X143.272 Y51.904 E6.41223
G1 X143.252 Y52.461 E6.42949
G1 X143.216 Y52.841 E6.44131
G1 X143.083 Y53.632 E6.46612
G1 X142.918 Y54.260 E6.48621
G1 X142.674 Y54.944 E6.50869
G1 X142.377 Y55.589 E6.53065
G1 X142.156 Y55.991 E6.54486
G1 X141.774 Y56.578 E6.56652
G1 X141.309 Y57.169 E6.58980
G1 X141.018 Y57.487 E6.60312
G1 X140.490 Y57.988 E6.62564
G1 X139.899 Y58.454 E6.64893
G1 X139.312 Y58.835 E6.67056
G1 X138.671 Y59.175 E6.69303
G1 X138.272 Y59.350 E6.70651
G1 X137.569 Y59.601 E6.72962
G1 X136.897 Y59.774 E6.75108
G1 X136.175 Y59.894 E6.77373
G1 X135.465 Y59.947 E6.79576
G1 X39.224 Y59.951 E9.77357
G1 X38.616 Y59.927 E9.79240
G1 X37.900 Y59.840 E9.81474
G1 X37.178 Y59.686 E9.83756
G1 X36.460 Y59.461 E9.86086
G1 X35.823 Y59.196 E9.88219
G1 X35.441 Y59.005 E9.89542
G1 X34.925 Y58.705 E9.91387
G1 X34.510 Y58.425 E9.92936
G1 X33.958 Y57.988 E9.95114
G1 X33.641 Y57.698 E9.96445
G1 X33.338 Y57.390 E9.97780
G1 X32.917 Y56.900 E9.99779
G1 X32.675 Y56.579 E10.01025
G1 X32.268 Y55.949 E10.03345
G1 X31.953 Y55.350 E10.05440
G1 X31.778 Y54.952 E10.06785
G1 X31.560 Y54.356 E10.08748
G1 X31.430 Y53.904 E10.10203
G1 X31.288 Y53.229 E10.12337
G1 X31.228 Y52.805 E10.13663
G1 X31.177 Y51.904 E10.16455
G1 X31.184 Y25.595 E10.97856
G1 X31.233 Y24.966 E10.99809
G1 X31.288 Y24.578 E11.01021
G1 X31.430 Y23.903 E11.03156
G1 X31.554 Y23.472 E11.04546
G1 X31.775 Y22.862 E11.06551
G1 X31.932 Y22.502 E11.07766
G1 X32.123 Y22.120 E11.09089
G1 X32.456 Y21.552 E11.11126
G1 E9.11126 F2400.00000
G92 E0
G1 X48.094 Y51.726 F7800.000
G1 E2.00000 F2400.00000
G1 X48.527 Y51.071 E2.02429 F1800.000
G1 X48.789 Y50.583 E2.04143
G1 X49.007 Y50.073 E2.05857
G1 X49.178 Y49.546 E2.07574
G1 X49.301 Y49.008 E2.09283
G1 X49.375 Y48.460 E2.10991
G1 X49.401 Y47.904 E2.12716
G1 X49.375 Y47.338 E2.14469
G1 X49.286 Y46.733 E2.16359
G1 X49.178 Y46.261 E2.17857
G1 X49.007 Y45.734 E2.19573
G1 X48.789 Y45.224 E2.21288
G1 X48.527 Y44.736 E2.23002
G1 X48.221 Y44.273 E2.24719
G1 X47.876 Y43.840 E2.26431
G1 X47.493 Y43.439 E2.28148
G1 X47.075 Y43.075 E2.29862
G1 X46.627 Y42.749 E2.31576
G1 X46.151 Y42.465 E2.33293
G1 X45.652 Y42.224 E2.35005
G1 X45.133 Y42.030 E2.36722
G1 X44.599 Y41.882 E2.38436
G1 X44.054 Y41.783 E2.40150
G1 X43.569 Y41.740 E2.41657
G1 X42.957 Y41.733 E2.43551
G1 X42.395 Y41.783 E2.45295
G1 X41.850 Y41.882 E2.47010
G1 X41.307 Y42.032 E2.48752
G1 X40.735 Y42.254 E2.50650
G1 X40.298 Y42.465 E2.52152
G1 X39.822 Y42.749 E2.53869
G1 X39.403 Y43.053 E2.55470
G1 X39.404 Y34.754 E2.81149
G1 X39.822 Y35.058 E2.82747
G1 X40.298 Y35.343 E2.84464
G1 X40.796 Y35.583 E2.86175
G1 X41.316 Y35.777 E2.87892
G1 X41.850 Y35.925 E2.89607
G1 X42.395 Y36.024 E2.91321
G1 X42.948 Y36.074 E2.93038
G1 X43.501 Y36.074 E2.94749
G1 X44.054 Y36.024 E2.96466
G1 X44.599 Y35.925 E2.98181
G1 X45.142 Y35.775 E2.99923
G1 X45.714 Y35.553 E3.01821
G1 X46.151 Y35.343 E3.03323
G1 X46.627 Y35.058 E3.05040
G1 X47.075 Y34.732 E3.06754
G1 X47.493 Y34.368 E3.08469
G1 X47.876 Y33.967 E3.10186
G1 X48.221 Y33.534 E3.11897
G1 X48.527 Y33.071 E3.13614
G1 X48.789 Y32.583 E3.15329
G1 X49.007 Y32.073 E3.17043
G1 X49.178 Y31.546 E3.18759
G1 X49.301 Y31.008 E3.20468
G1 X49.375 Y30.460 E3.22176
G1 X49.401 Y29.904 E3.23901
G1 X49.375 Y29.338 E3.25654
G1 X49.286 Y28.733 E3.27544
G1 X49.178 Y28.261 E3.29043
G1 X49.007 Y27.734 E3.30759
G1 X48.789 Y27.224 E3.32473
G1 X48.527 Y26.736 E3.34187
G1 X48.094 Y26.081 E3.36616
G1 X126.354 Y26.082 E5.78760
G1 X125.922 Y26.736 E5.81185
G1 X125.659 Y27.224 E5.82899
G1 X125.442 Y27.734 E5.84613
G1 X125.270 Y28.261 E5.86329
G1 X125.147 Y28.800 E5.88038
G1 X125.073 Y29.347 E5.89746
G1 X125.048 Y29.904 E5.91471
G1 X125.073 Y30.460 E5.93196
G1 X125.149 Y31.017 E5.94933
G1 X125.291 Y31.611 E5.96823
G1 X125.442 Y32.074 E5.98329
G1 X125.659 Y32.583 E6.00043
G1 X125.922 Y33.071 E6.01758
G1 X126.228 Y33.534 E6.03475
G1 X126.573 Y33.967 E6.05186
G1 X126.956 Y34.368 E6.06903
G1 X127.373 Y34.732 E6.08618
G1 X127.822 Y35.058 E6.10332
G1 X128.298 Y35.343 E6.12049
G1 X128.796 Y35.583 E6.13761
G1 X129.316 Y35.777 E6.15478
G1 X129.850 Y35.925 E6.17192
G1 X130.395 Y36.024 E6.18906
G1 X130.880 Y36.068 E6.20413
G1 X131.492 Y36.074 E6.22306
G1 X132.054 Y36.024 E6.24051
G1 X132.599 Y35.925 E6.25765
G1 X133.142 Y35.775 E6.27508
G1 X133.714 Y35.553 E6.29406
G1 X134.151 Y35.343 E6.30908
G1 X134.627 Y35.058 E6.32625
G1 X135.046 Y34.754 E6.34226
G1 X135.045 Y43.053 E6.59904
G1 X134.627 Y42.749 E6.61503
G1 X134.151 Y42.465 E6.63219
G1 X133.652 Y42.224 E6.64931
G1 X133.133 Y42.030 E6.66648
G1 X132.599 Y41.882 E6.68362
G1 X132.054 Y41.783 E6.70077
G1 X131.569 Y41.740 E6.71583
G1 X130.957 Y41.733 E6.73477
G1 X130.395 Y41.783 E6.75222
G1 X129.850 Y41.882 E6.76936
G1 X129.316 Y42.030 E6.78650
G1 X128.796 Y42.224 E6.80367
G1 X128.298 Y42.465 E6.82079
G1 X127.822 Y42.749 E6.83796
G1 X127.373 Y43.075 E6.85510
G1 X126.956 Y43.440 E6.87224
G1 X126.573 Y43.841 E6.88941
G1 X126.228 Y44.273 E6.90653
G1 X125.922 Y44.736 E6.92370
G1 X125.659 Y45.224 E6.94084
G1 X125.442 Y45.734 E6.95799
G1 X125.270 Y46.261 E6.97515
G1 X125.147 Y46.800 E6.99224
G1 X125.073 Y47.347 E7.00932
G1 X125.048 Y47.904 E7.02657
G1 X125.073 Y48.460 E7.04382
G1 X125.149 Y49.017 E7.06118
G1 X125.291 Y49.611 E7.08009
G1 X125.442 Y50.074 E7.09515
G1 X125.659 Y50.583 E7.11229
G1 X125.922 Y51.071 E7.12943
G1 X126.354 Y51.726 E7.15372
G1 X48.169 Y51.726 E9.57287
G1 X46.562 Y52.351 F7800.000
G1 X47.060 Y51.916 E9.59334 F1800.000
G1 X47.405 Y51.555 E9.60877
G1 X47.715 Y51.166 E9.62415
G1 X47.990 Y50.750 E9.63959
G1 X48.226 Y50.312 E9.65499
G1 X48.421 Y49.854 E9.67040
G1 X48.575 Y49.379 E9.68583
G1 X48.686 Y48.896 E9.70118
G1 X48.752 Y48.404 E9.71653
G1 X48.775 Y47.904 E9.73203
G1 X48.752 Y47.397 E9.74771
G1 X48.671 Y46.848 E9.76488
G1 X48.575 Y46.428 E9.77824
G1 X48.421 Y45.953 E9.79367
G1 X48.226 Y45.495 E9.80907
G1 X47.990 Y45.057 E9.82448
G1 X47.715 Y44.641 E9.83991
G1 X47.405 Y44.252 E9.85529
G1 X47.060 Y43.892 E9.87073
G1 X46.685 Y43.564 E9.88613
G1 X46.283 Y43.271 E9.90154
G1 X45.854 Y43.015 E9.91697
G1 X45.407 Y42.800 E9.93235
G1 X44.939 Y42.625 E9.94779
G1 X44.460 Y42.492 E9.96319
G1 X43.970 Y42.403 E9.97859
G1 X43.537 Y42.364 E9.99204
G1 X42.981 Y42.358 E10.00923
G1 X42.479 Y42.403 E10.02484
G1 X41.989 Y42.492 E10.04024
G1 X41.504 Y42.626 E10.05581
G1 X40.984 Y42.828 E10.07307
G1 X40.594 Y43.015 E10.08645
G1 X40.166 Y43.271 E10.10189
G1 X39.763 Y43.564 E10.11729
G1 X39.389 Y43.892 E10.13270
G1 X38.778 Y44.530 E10.16004
G1 X38.779 Y33.278 E10.50819
G1 X39.389 Y33.916 E10.53548
G1 X39.763 Y34.243 E10.55089
G1 X40.166 Y34.536 E10.56629
G1 X40.594 Y34.792 E10.58173
G1 X41.042 Y35.007 E10.59710
G1 X41.509 Y35.183 E10.61254
G1 X41.989 Y35.315 E10.62794
G1 X42.479 Y35.404 E10.64335
G1 X42.976 Y35.449 E10.65878
G1 X43.473 Y35.449 E10.67416
G1 X43.970 Y35.404 E10.68960
G1 X44.460 Y35.315 E10.70500
G1 X44.945 Y35.181 E10.72057
G1 X45.465 Y34.979 E10.73783
G1 X45.854 Y34.792 E10.75121
G1 X46.283 Y34.536 E10.76665
G1 X46.685 Y34.243 E10.78205
G1 X47.060 Y33.916 E10.79746
G1 X47.405 Y33.555 E10.81289
G1 X47.715 Y33.166 E10.82827
G1 X47.990 Y32.750 E10.84371
G1 X48.226 Y32.312 E10.85911
G1 X48.421 Y31.854 E10.87452
G1 X48.575 Y31.379 E10.88995
G1 X48.686 Y30.896 E10.90530
G1 X48.752 Y30.404 E10.92065
G1 X48.775 Y29.904 E10.93616
G1 X48.752 Y29.397 E10.95183
G1 X48.671 Y28.848 E10.96900
G1 X48.575 Y28.428 E10.98236
G1 X48.421 Y27.953 E10.99779
G1 X48.226 Y27.495 E11.01319
G1 X47.990 Y27.057 E11.02860
G1 X47.715 Y26.641 E11.04403
G1 X47.405 Y26.252 E11.05941
G1 X47.060 Y25.892 E11.07485
G1 X46.562 Y25.456 E11.09531
G1 X127.885 Y25.457 E13.61154
G1 X127.389 Y25.892 E13.63194
G1 X127.044 Y26.252 E13.64738
G1 X126.734 Y26.641 E13.66276
G1 X126.459 Y27.057 E13.67820
G1 X126.223 Y27.495 E13.69360
G1 X126.028 Y27.953 E13.70900
G1 X125.873 Y28.428 E13.72444
G1 X125.763 Y28.911 E13.73978
G1 X125.696 Y29.403 E13.75514
G1 X125.673 Y29.904 E13.77064
G1 X125.696 Y30.404 E13.78615
G1 X125.764 Y30.901 E13.80167
G1 X125.893 Y31.441 E13.81884
G1 X126.028 Y31.854 E13.83228
G1 X126.223 Y32.312 E13.84768
G1 X126.459 Y32.750 E13.86308
G1 X126.734 Y33.166 E13.87852
G1 X127.044 Y33.555 E13.89390
G1 X127.389 Y33.916 E13.90934
G1 X127.763 Y34.243 E13.92474
G1 X128.166 Y34.536 E13.94014
G1 X128.594 Y34.792 E13.95558
G1 X129.042 Y35.007 E13.97096
G1 X129.509 Y35.183 E13.98639
G1 X129.989 Y35.315 E14.00180
G1 X130.479 Y35.404 E14.01720
G1 X130.912 Y35.443 E14.03065
G1 X131.467 Y35.449 E14.04784
G1 X131.970 Y35.404 E14.06345
G1 X132.460 Y35.315 E14.07885
G1 X132.945 Y35.181 E14.09442
G1 X133.465 Y34.979 E14.11168
G1 X133.854 Y34.792 E14.12506
G1 X134.283 Y34.536 E14.14050
G1 X134.685 Y34.243 E14.15590
G1 X135.060 Y33.916 E14.17131
G1 X135.671 Y33.277 E14.19865
G1 X135.670 Y44.529 E14.54680
G1 X135.060 Y43.892 E14.57409
G1 X134.685 Y43.564 E14.58949
G1 X134.283 Y43.271 E14.60490
G1 X133.854 Y43.015 E14.62034
G1 X133.407 Y42.800 E14.63571
G1 X132.939 Y42.625 E14.65115
G1 X132.460 Y42.492 E14.66655
G1 X131.970 Y42.403 E14.68196
G1 X131.537 Y42.364 E14.69540
G1 X130.981 Y42.358 E14.71259
G1 X130.479 Y42.403 E14.72820
G1 X129.989 Y42.492 E14.74360
G1 X129.509 Y42.625 E14.75901
G1 X129.042 Y42.800 E14.77444
G1 X128.594 Y43.015 E14.78982
G1 X128.166 Y43.271 E14.80526
G1 X127.763 Y43.564 E14.82066
G1 X127.389 Y43.892 E14.83607
G1 X127.044 Y44.252 E14.85150
G1 X126.734 Y44.641 E14.86688
G1 X126.459 Y45.057 E14.88232
G1 X126.223 Y45.495 E14.89772
G1 X126.028 Y45.953 E14.91312
G1 X125.873 Y46.428 E14.92856
G1 X125.763 Y46.911 E14.94390
G1 X125.696 Y47.403 E14.95926
G1 X125.673 Y47.904 E14.97476
G1 X125.696 Y48.404 E14.99027
G1 X125.764 Y48.901 E15.00579
G1 X125.893 Y49.441 E15.02296
G1 X126.028 Y49.854 E15.03640
G1 X126.223 Y50.312 E15.05180
G1 X126.459 Y50.750 E15.06721
G1 X126.734 Y51.166 E15.08264
G1 X127.044 Y51.555 E15.09802
G1 X127.389 Y51.916 E15.11346
G1 X127.886 Y52.351 E15.13392
G1 X46.637 Y52.351 E17.64788
G1 X44.516 Y52.651 F7800.000
G1 X44.746 Y52.588 E17.65527 F1800.000
G1 X45.161 Y52.432 E17.66897
G1 X45.558 Y52.241 E17.68261
G1 X45.938 Y52.014 E17.69631
G1 X46.295 Y51.754 E17.70998
G1 X46.628 Y51.463 E17.72364
G1 X46.934 Y51.143 E17.73735
G1 X47.209 Y50.799 E17.75098
G1 X47.453 Y50.429 E17.76469
G1 X47.662 Y50.040 E17.77835
G1 X47.835 Y49.634 E17.79202
G1 X47.972 Y49.213 E17.80572
G1 X48.070 Y48.784 E17.81933
G1 X48.129 Y48.348 E17.83295
G1 X48.150 Y47.904 E17.84671
G1 X48.129 Y47.457 E17.86054
G1 X48.057 Y46.964 E17.87598
G1 X47.972 Y46.594 E17.88770
G1 X47.835 Y46.173 E17.90140
G1 X47.662 Y45.767 E17.91507
G1 X47.453 Y45.378 E17.92873
G1 X47.209 Y45.008 E17.94244
G1 X46.934 Y44.664 E17.95607
G1 X46.628 Y44.344 E17.96978
G1 X46.295 Y44.053 E17.98344
G1 X45.938 Y43.793 E17.99711
G1 X45.558 Y43.566 E18.01081
G1 X45.161 Y43.375 E18.02445
G1 X44.746 Y43.219 E18.03815
G1 X44.320 Y43.102 E18.05182
G1 X43.886 Y43.023 E18.06548
G1 X43.505 Y42.989 E18.07731
G1 X43.006 Y42.983 E18.09275
G1 X42.563 Y43.023 E18.10652
G1 X42.128 Y43.102 E18.12019
G1 X41.701 Y43.220 E18.13391
G1 X41.233 Y43.401 E18.14943
G1 X40.891 Y43.566 E18.16118
G1 X40.511 Y43.793 E18.17489
G1 X40.153 Y44.053 E18.18855
G1 X39.821 Y44.344 E18.20222
G1 X39.515 Y44.664 E18.21592
G1 X39.240 Y45.008 E18.22956
G1 X38.996 Y45.378 E18.24326
G1 X38.787 Y45.767 E18.25693
G1 X38.613 Y46.173 E18.27059
G1 X38.469 Y46.617 E18.28505
G1 X38.153 Y46.567 E18.29495
G1 X38.154 Y31.245 E18.76904
G1 X38.470 Y31.195 E18.77894
G1 X38.613 Y31.634 E18.79323
G1 X38.787 Y32.040 E18.80690
G1 X38.996 Y32.429 E18.82056
G1 X39.240 Y32.799 E18.83427
G1 X39.515 Y33.143 E18.84790
G1 X39.821 Y33.464 E18.86161
G1 X40.153 Y33.754 E18.87527
G1 X40.511 Y34.014 E18.88894
G1 X40.891 Y34.241 E18.90265
G1 X41.288 Y34.432 E18.91628
G1 X41.703 Y34.588 E18.92998
G1 X42.128 Y34.705 E18.94365
G1 X42.563 Y34.784 E18.95731
G1 X43.004 Y34.824 E18.97102
G1 X43.445 Y34.824 E18.98465
G1 X43.886 Y34.784 E18.99836
G1 X44.320 Y34.705 E19.01202
G1 X44.748 Y34.587 E19.02575
G1 X45.216 Y34.406 E19.04127
G1 X45.558 Y34.241 E19.05302
G1 X45.938 Y34.014 E19.06673
G1 X46.295 Y33.754 E19.08039
G1 X46.628 Y33.463 E19.09406
G1 X46.934 Y33.143 E19.10776
G1 X47.209 Y32.799 E19.12140
G1 X47.453 Y32.429 E19.13510
G1 X47.662 Y32.040 E19.14877
G1 X47.835 Y31.634 E19.16243
G1 X47.972 Y31.213 E19.17613
G1 X48.070 Y30.784 E19.18974
G1 X48.129 Y30.348 E19.20337
G1 X48.150 Y29.904 E19.21713
G1 X48.129 Y29.457 E19.23095
G1 X48.057 Y28.964 E19.24639
G1 X47.972 Y28.594 E19.25812
G1 X47.835 Y28.173 E19.27182
G1 X47.662 Y27.767 E19.28548
G1 X47.453 Y27.378 E19.29915
G1 X47.209 Y27.008 E19.31285
G1 X46.934 Y26.664 E19.32649
G1 X46.628 Y26.344 E19.34019
G1 X46.295 Y26.053 E19.35386
G1 X45.938 Y25.793 E19.36752
G1 X45.558 Y25.566 E19.38123
G1 X45.161 Y25.375 E19.39486
G1 X44.746 Y25.219 E19.40857
G1 X44.516 Y25.156 E19.41595
G1 X44.560 Y24.831 E19.42608
G1 X129.884 Y24.832 E22.06612
G1 X129.928 Y25.157 E22.07626
G1 X129.703 Y25.219 E22.08350
G1 X129.288 Y25.375 E22.09721
G1 X128.891 Y25.566 E22.11084
G1 X128.511 Y25.793 E22.12454
G1 X128.153 Y26.053 E22.13821
G1 X127.821 Y26.344 E22.15188
G1 X127.515 Y26.664 E22.16558
G1 X127.240 Y27.008 E22.17922
G1 X126.996 Y27.378 E22.19292
G1 X126.787 Y27.767 E22.20659
G1 X126.613 Y28.173 E22.22025
G1 X126.476 Y28.594 E22.23395
G1 X126.378 Y29.023 E22.24756
G1 X126.319 Y29.459 E22.26119
G1 X126.299 Y29.904 E22.27495
G1 X126.319 Y30.348 E22.28871
G1 X126.379 Y30.786 E22.30239
G1 X126.495 Y31.271 E22.31782
G1 X126.613 Y31.634 E22.32964
G1 X126.787 Y32.040 E22.34330
G1 X126.996 Y32.429 E22.35697
G1 X127.240 Y32.799 E22.37067
G1 X127.515 Y33.143 E22.38431
G1 X127.821 Y33.463 E22.39801
G1 X128.153 Y33.754 E22.41168
G1 X128.511 Y34.014 E22.42534
G1 X128.891 Y34.241 E22.43905
G1 X129.288 Y34.432 E22.45268
G1 X129.703 Y34.588 E22.46639
G1 X130.128 Y34.705 E22.48005
G1 X130.563 Y34.784 E22.49372
G1 X130.943 Y34.818 E22.50554
G1 X131.443 Y34.824 E22.52099
G1 X131.886 Y34.784 E22.53475
G1 X132.320 Y34.705 E22.54842
G1 X132.748 Y34.587 E22.56215
G1 X133.216 Y34.406 E22.57767
G1 X133.558 Y34.241 E22.58942
G1 X133.938 Y34.014 E22.60312
G1 X134.295 Y33.754 E22.61679
G1 X134.628 Y33.463 E22.63045
G1 X134.934 Y33.143 E22.64416
G1 X135.209 Y32.799 E22.65779
G1 X135.453 Y32.429 E22.67150
G1 X135.662 Y32.040 E22.68516
G1 X135.835 Y31.634 E22.69883
G1 X135.980 Y31.190 E22.71328
G1 X136.296 Y31.240 E22.72319
G1 X136.295 Y46.562 E23.19727
G1 X135.978 Y46.612 E23.20718
G1 X135.835 Y46.173 E23.22147
G1 X135.662 Y45.767 E23.23513
G1 X135.453 Y45.378 E23.24880
G1 X135.209 Y45.008 E23.26250
G1 X134.934 Y44.664 E23.27614
G1 X134.628 Y44.344 E23.28984
G1 X134.295 Y44.053 E23.30351
