; generated by Slic3r 1.2.9 on 2018-07-17 at 14:04:36

; external perimeters extrusion width = 0.50mm
; perimeters extrusion width = 0.72mm
; infill extrusion width = 0.72mm
; solid infill extrusion width = 0.72mm
; top infill extrusion width = 0.72mm

M107
M104 S200 ; set temperature
G28 ; home all axes
G1 Z5 F5000 ; lift nozzle

M109 S200 ; wait for temperature to be reached
G21 ; set units to millimeters
G90 ; use absolute coordinates
M82 ; use absolute distances for extrusion
G92 E0
G1 Z0.350 F7800.000
G1 E-2.00000 F2400.00000
G92 E0
G1 X34.494 Y16.566 F7800.000
G1 E2.00000 F2400.00000
G1 X34.733 Y16.105 E2.01608 F1800.000
G1 X34.997 Y15.667 E2.03189
G1 X35.290 Y15.246 E2.04778
G1 X35.615 Y14.838 E2.06390
G1 X36.112 Y14.308 E2.08639
G1 X36.492 Y13.962 E2.10228
G1 X36.899 Y13.637 E2.11840
G1 X37.321 Y13.344 E2.13430
G1 X37.758 Y13.080 E2.15009
G1 X38.220 Y12.841 E2.16619
G1 X38.693 Y12.634 E2.18217
G1 X39.197 Y12.453 E2.19874
G1 X39.711 Y12.307 E2.21528
G1 X40.216 Y12.200 E2.23123
G1 X40.725 Y12.126 E2.24715
G1 X41.234 Y12.085 E2.26296
G1 X137.721 Y12.077 E5.24839
G1 X138.484 Y12.126 E5.27205 F1800.000
G1 X139.246 Y12.249 E5.29594
G1 X139.994 Y12.448 E5.31988
G1 X140.716 Y12.717 E5.34370
G1 X141.412 Y13.058 E5.36770
G1 X142.067 Y13.463 E5.39153
G1 X142.683 Y13.933 E5.41551
G1 X143.248 Y14.459 E5.43937
G1 X143.760 Y15.040 E5.46336
G1 X144.212 Y15.667 E5.48726
G1 X144.599 Y16.333 E5.51109
G1 X144.921 Y17.040 E5.53515
G1 X145.170 Y17.765 E5.55886
G1 X145.348 Y18.521 E5.58287
G1 X145.451 Y19.284 E5.60670
G1 X145.479 Y19.951 E5.62736
G1 X145.479 Y45.951 E6.43184
G1 X145.430 Y46.829 E6.45906
G1 X145.297 Y47.635 E6.48431
G1 X145.107 Y48.342 E6.50697
G1 X144.922 Y48.862 E6.52404
G1 X144.618 Y49.533 E6.54684
G1 X144.348 Y50.017 E6.56399
G1 X143.942 Y50.625 E6.58660
G1 X143.593 Y51.064 E6.60396
G1 X143.097 Y51.594 E6.62643
G1 X142.684 Y51.969 E6.64369
G1 X142.101 Y52.416 E6.66643
G1 X141.636 Y52.715 E6.68352
G1 X140.989 Y53.061 E6.70621
G1 X140.477 Y53.283 E6.72348
G1 X139.790 Y53.516 E6.74593
G1 X139.246 Y53.653 E6.76328
G1 X138.526 Y53.772 E6.78588
G1 X137.975 Y53.817 E6.80298
G1 X41.605 Y53.826 E9.78481
G1 X40.938 Y53.797 E9.80543
G1 X40.216 Y53.702 E9.82799
G1 X39.670 Y53.584 E9.84526
G1 X38.933 Y53.359 E9.86912
G1 X38.456 Y53.169 E9.88500
G1 X37.985 Y52.945 E9.90113
G1 X37.355 Y52.581 E9.92365
G1 X36.931 Y52.289 E9.93956
G1 X36.526 Y51.969 E9.95555
G1 X36.142 Y51.623 E9.97153
G1 X35.786 Y51.257 E9.98735
G1 X35.449 Y50.862 E10.00340
G1 X35.140 Y50.448 E10.01940
G1 X34.840 Y49.982 E10.03655
G1 X34.590 Y49.530 E10.05250
G1 X34.370 Y49.062 E10.06851
G1 X34.115 Y48.383 E10.09097
G1 X33.971 Y47.887 E10.10695
G1 X33.861 Y47.381 E10.12297
G1 X33.784 Y46.872 E10.13889
G1 X33.741 Y46.362 E10.15472
G1 X33.730 Y45.951 E10.16745
G1 X33.731 Y19.793 E10.97681
G1 X33.784 Y19.030 E11.00046
G1 X33.912 Y18.268 E11.02437
G1 X34.115 Y17.520 E11.04837
G1 X34.273 Y17.078 E11.06289
G1 X34.463 Y16.634 E11.07782
G1 E9.07782 F2400.00000
G92 E0
G1 X50.581 Y45.601 F7800.000
G1 E2.00000 F2400.00000
G1 X50.850 Y45.213 E2.01462 F1800.000
G1 X51.144 Y44.683 E2.03337
G1 X51.385 Y44.126 E2.05214
G1 X51.571 Y43.550 E2.07088
G1 X51.699 Y42.957 E2.08964
G1 X51.768 Y42.356 E2.10836
G1 X51.778 Y41.748 E2.12717
G1 X51.728 Y41.144 E2.14592
G1 X51.620 Y40.549 E2.16465
G1 X51.454 Y39.966 E2.18340
G1 X51.231 Y39.402 E2.20217
G1 X50.954 Y38.863 E2.22091
G1 X50.625 Y38.353 E2.23968
G1 X50.248 Y37.878 E2.25844
G1 X49.827 Y37.443 E2.27718
G1 X49.364 Y37.051 E2.29595
G1 X48.866 Y36.706 E2.31469
G1 X48.337 Y36.411 E2.33345
G1 X47.780 Y36.170 E2.35222
G1 X47.203 Y35.985 E2.37095
G1 X46.611 Y35.857 E2.38972
G1 X46.010 Y35.788 E2.40844
G1 X45.428 Y35.777 E2.42644
G1 X44.800 Y35.827 E2.44592
G1 X44.202 Y35.936 E2.46474
G1 X43.619 Y36.102 E2.48349
G1 X43.055 Y36.325 E2.50226
G1 X42.516 Y36.602 E2.52100
G1 X41.955 Y36.964 E2.54168
G1 X41.955 Y28.928 E2.79032
G1 X42.343 Y29.196 E2.80492
G1 X42.872 Y29.491 E2.82367
G1 X43.429 Y29.732 E2.84244
G1 X44.006 Y29.917 E2.86118
G1 X44.598 Y30.045 E2.87995
G1 X45.201 Y30.114 E2.89870
G1 X45.806 Y30.124 E2.91744
G1 X46.411 Y30.075 E2.93622
G1 X47.007 Y29.966 E2.95496
G1 X47.590 Y29.800 E2.97371
G1 X48.154 Y29.577 E2.99248
G1 X48.693 Y29.300 E3.01122
G1 X49.202 Y28.972 E3.02999
G1 X49.677 Y28.595 E3.04874
G1 X50.112 Y28.174 E3.06748
G1 X50.505 Y27.711 E3.08626
G1 X50.850 Y27.213 E3.10500
G1 X51.144 Y26.683 E3.12375
G1 X51.385 Y26.126 E3.14253
G1 X51.571 Y25.550 E3.16126
G1 X51.699 Y24.957 E3.18003
G1 X51.768 Y24.356 E3.19875
G1 X51.778 Y23.748 E3.21756
G1 X51.728 Y23.144 E3.23630
G1 X51.620 Y22.549 E3.25504
G1 X51.454 Y21.966 E3.27379
G1 X51.231 Y21.402 E3.29256
G1 X50.954 Y20.863 E3.31130
G1 X50.592 Y20.301 E3.33199
G1 X128.628 Y20.301 E5.74654
G1 X128.359 Y20.689 E5.76114
G1 X128.065 Y21.219 E5.77989
G1 X127.824 Y21.776 E5.79866
G1 X127.638 Y22.352 E5.81740
G1 X127.510 Y22.945 E5.83616
G1 X127.441 Y23.546 E5.85488
G1 X127.431 Y24.154 E5.87369
G1 X127.481 Y24.758 E5.89244
G1 X127.589 Y25.353 E5.91117
G1 X127.756 Y25.936 E5.92992
G1 X127.979 Y26.500 E5.94869
G1 X128.255 Y27.039 E5.96743
G1 X128.584 Y27.549 E5.98620
G1 X128.961 Y28.024 E6.00496
G1 X129.382 Y28.459 E6.02370
G1 X129.845 Y28.851 E6.04247
G1 X130.343 Y29.196 E6.06121
G1 X130.872 Y29.491 E6.07996
G1 X131.429 Y29.732 E6.09874
G1 X132.006 Y29.917 E6.11747
G1 X132.598 Y30.045 E6.13624
G1 X133.201 Y30.114 E6.15500
G1 X133.806 Y30.124 E6.17374
G1 X134.411 Y30.075 E6.19251
G1 X135.007 Y29.966 E6.21126
G1 X135.590 Y29.800 E6.23001
G1 X136.154 Y29.577 E6.24878
G1 X136.693 Y29.300 E6.26752
G1 X137.254 Y28.938 E6.28820
G1 X137.254 Y36.974 E6.53684
G1 X136.866 Y36.706 E6.55144
G1 X136.337 Y36.411 E6.57019
G1 X135.780 Y36.170 E6.58896
G1 X135.203 Y35.985 E6.60770
G1 X134.611 Y35.857 E6.62647
G1 X134.010 Y35.788 E6.64518
G1 X133.428 Y35.777 E6.66318
G1 X132.800 Y35.827 E6.68266
G1 X132.202 Y35.936 E6.70148
G1 X131.619 Y36.102 E6.72023
G1 X131.055 Y36.325 E6.73900
G1 X130.516 Y36.602 E6.75774
G1 X130.007 Y36.930 E6.77651
G1 X129.532 Y37.307 E6.79526
G1 X129.097 Y37.728 E6.81400
G1 X128.704 Y38.191 E6.83278
G1 X128.359 Y38.689 E6.85152
G1 X128.065 Y39.219 E6.87027
G1 X127.824 Y39.776 E6.88904
G1 X127.638 Y40.352 E6.90778
G1 X127.510 Y40.945 E6.92655
G1 X127.441 Y41.546 E6.94527
G1 X127.431 Y42.154 E6.96408
G1 X127.481 Y42.758 E6.98282
G1 X127.589 Y43.353 E7.00156
G1 X127.756 Y43.936 E7.02031
G1 X127.979 Y44.500 E7.03908
G1 X128.255 Y45.039 E7.05782
G1 X128.618 Y45.601 E7.07851
G1 X50.656 Y45.601 E9.49075
G1 X49.160 Y46.226 F7800.000
G1 X49.656 Y45.746 E9.51211 F1800.000
G1 X50.009 Y45.330 E9.52899
G1 X50.318 Y44.882 E9.54583
G1 X50.583 Y44.406 E9.56268
G1 X50.800 Y43.906 E9.57955
G1 X50.966 Y43.388 E9.59639
G1 X51.081 Y42.855 E9.61326
G1 X51.144 Y42.315 E9.63008
G1 X51.153 Y41.769 E9.64698
G1 X51.108 Y41.226 E9.66383
G1 X51.011 Y40.691 E9.68067
G1 X50.861 Y40.167 E9.69752
G1 X50.661 Y39.660 E9.71439
G1 X50.412 Y39.176 E9.73123
G1 X50.117 Y38.718 E9.74810
G1 X49.778 Y38.291 E9.76495
G1 X49.399 Y37.900 E9.78180
G1 X48.984 Y37.547 E9.79867
G1 X48.536 Y37.237 E9.81551
G1 X48.060 Y36.973 E9.83237
G1 X47.560 Y36.756 E9.84923
G1 X47.041 Y36.589 E9.86607
G1 X46.509 Y36.474 E9.88294
G1 X45.968 Y36.412 E9.89977
G1 X45.447 Y36.403 E9.91591
G1 X44.881 Y36.447 E9.93347
G1 X44.344 Y36.545 E9.95036
G1 X43.820 Y36.695 E9.96721
G1 X43.313 Y36.895 E9.98408
G1 X42.829 Y37.144 E10.00092
G1 X42.371 Y37.439 E10.01778
G1 X41.944 Y37.778 E10.03464
G1 X41.330 Y38.372 E10.06111
G1 X41.330 Y27.507 E10.39731
G1 X41.810 Y28.002 E10.41865
G1 X42.225 Y28.355 E10.43552
G1 X42.673 Y28.665 E10.45237
G1 X43.149 Y28.930 E10.46922
G1 X43.649 Y29.146 E10.48609
G1 X44.168 Y29.313 E10.50293
G1 X44.700 Y29.428 E10.51980
G1 X45.242 Y29.490 E10.53665
G1 X45.786 Y29.499 E10.55349
G1 X46.329 Y29.455 E10.57037
G1 X46.865 Y29.357 E10.58721
G1 X47.389 Y29.208 E10.60406
G1 X47.896 Y29.007 E10.62093
G1 X48.380 Y28.758 E10.63777
G1 X48.838 Y28.463 E10.65464
G1 X49.265 Y28.124 E10.67150
G1 X49.656 Y27.746 E10.68834
G1 X50.009 Y27.330 E10.70521
G1 X50.318 Y26.882 E10.72206
G1 X50.583 Y26.406 E10.73891
G1 X50.800 Y25.906 E10.75578
G1 X50.966 Y25.388 E10.77262
G1 X51.081 Y24.855 E10.78948
G1 X51.144 Y24.315 E10.80630
G1 X51.153 Y23.769 E10.82321
G1 X51.108 Y23.226 E10.84006
G1 X51.011 Y22.691 E10.85690
G1 X50.861 Y22.167 E10.87375
G1 X50.661 Y21.660 E10.89062
G1 X50.412 Y21.176 E10.90746
G1 X50.117 Y20.718 E10.92432
G1 X49.778 Y20.291 E10.94118
G1 X49.183 Y19.676 E10.96765
G1 X130.049 Y19.676 E13.46976
G1 X129.553 Y20.156 E13.49110
G1 X129.200 Y20.572 E13.50798
G1 X128.891 Y21.020 E13.52482
G1 X128.626 Y21.496 E13.54167
G1 X128.409 Y21.996 E13.55854
G1 X128.243 Y22.514 E13.57538
G1 X128.128 Y23.047 E13.59225
G1 X128.065 Y23.587 E13.60907
G1 X128.057 Y24.133 E13.62598
G1 X128.101 Y24.676 E13.64282
G1 X128.198 Y25.211 E13.65966
G1 X128.348 Y25.735 E13.67651
G1 X128.548 Y26.242 E13.69338
G1 X128.797 Y26.726 E13.71022
G1 X129.092 Y27.184 E13.72709
G1 X129.431 Y27.611 E13.74395
G1 X129.810 Y28.002 E13.76079
G1 X130.225 Y28.355 E13.77766
G1 X130.673 Y28.665 E13.79451
G1 X131.149 Y28.930 E13.81136
G1 X131.649 Y29.146 E13.82823
G1 X132.168 Y29.313 E13.84507
G1 X132.700 Y29.428 E13.86193
G1 X133.242 Y29.490 E13.87879
G1 X133.786 Y29.499 E13.89563
G1 X134.329 Y29.455 E13.91251
G1 X134.865 Y29.357 E13.92935
G1 X135.389 Y29.208 E13.94620
G1 X135.896 Y29.007 E13.96307
G1 X136.380 Y28.758 E13.97991
G1 X136.838 Y28.463 E13.99678
G1 X137.265 Y28.124 E14.01363
G1 X137.879 Y27.530 E14.04010
G1 X137.879 Y38.395 E14.37630
G1 X137.399 Y37.900 E14.39764
G1 X136.984 Y37.547 E14.41452
G1 X136.536 Y37.237 E14.43136
G1 X136.060 Y36.973 E14.44821
G1 X135.560 Y36.756 E14.46508
G1 X135.041 Y36.589 E14.48192
G1 X134.509 Y36.474 E14.49879
G1 X133.968 Y36.412 E14.51562
G1 X133.447 Y36.403 E14.53175
G1 X132.881 Y36.447 E14.54931
G1 X132.344 Y36.545 E14.56620
G1 X131.820 Y36.695 E14.58306
G1 X131.313 Y36.895 E14.59993
G1 X130.829 Y37.144 E14.61677
G1 X130.371 Y37.439 E14.63363
G1 X129.944 Y37.778 E14.65049
G1 X129.553 Y38.156 E14.66733
G1 X129.200 Y38.572 E14.68420
G1 X128.891 Y39.020 E14.70105
G1 X128.626 Y39.496 E14.71790
G1 X128.409 Y39.996 E14.73477
G1 X128.243 Y40.514 E14.75161
G1 X128.128 Y41.047 E14.76847
G1 X128.065 Y41.587 E14.78530
G1 X128.057 Y42.133 E14.80220
G1 X128.101 Y42.676 E14.81905
G1 X128.198 Y43.211 E14.83589
G1 X128.348 Y43.735 E14.85274
G1 X128.548 Y44.242 E14.86961
G1 X128.797 Y44.726 E14.88645
G1 X129.092 Y45.184 E14.90332
G1 X129.431 Y45.611 E14.92017
G1 X130.026 Y46.226 E14.94665
G1 X49.235 Y46.226 E17.44644
G1 X47.362 Y46.546 F7800.000
G1 X47.637 Y46.437 E17.45561 F1800.000
G1 X48.067 Y46.217 E17.47055
G1 X48.474 Y45.955 E17.48552
G1 X48.852 Y45.654 E17.50047
G1 X49.199 Y45.318 E17.51542
G1 X49.512 Y44.949 E17.53039
G1 X49.787 Y44.552 E17.54534
G1 X50.022 Y44.130 E17.56029
G1 X50.214 Y43.686 E17.57526
G1 X50.362 Y43.226 E17.59020
G1 X50.464 Y42.753 E17.60516
G1 X50.519 Y42.274 E17.62009
G1 X50.527 Y41.789 E17.63509
G1 X50.488 Y41.308 E17.65004
G1 X50.401 Y40.833 E17.66498
G1 X50.269 Y40.368 E17.67993
G1 X50.091 Y39.918 E17.69490
G1 X49.870 Y39.489 E17.70984
G1 X49.608 Y39.082 E17.72481
G1 X49.308 Y38.703 E17.73976
G1 X48.972 Y38.356 E17.75471
G1 X48.603 Y38.043 E17.76968
G1 X48.206 Y37.768 E17.78462
G1 X47.783 Y37.534 E17.79958
G1 X47.339 Y37.341 E17.81454
G1 X46.880 Y37.194 E17.82949
G1 X46.407 Y37.091 E17.84445
G1 X45.927 Y37.036 E17.85940
G1 X45.466 Y37.028 E17.87366
G1 X44.962 Y37.068 E17.88931
G1 X44.486 Y37.154 E17.90427
G1 X44.021 Y37.287 E17.91922
G1 X43.572 Y37.465 E17.93419
G1 X43.142 Y37.685 E17.94913
G1 X42.735 Y37.947 E17.96410
G1 X42.357 Y38.248 E17.97905
G1 X42.010 Y38.584 E17.99400
G1 X41.697 Y38.953 E18.00897
G1 X41.422 Y39.350 E18.02392
G1 X41.187 Y39.772 E18.03887
G1 X41.004 Y40.196 E18.05315
G1 X40.705 Y40.134 E18.06259
G1 X40.705 Y25.768 E18.50709
G1 X41.010 Y25.710 E18.51669
G1 X41.118 Y25.984 E18.52581
G1 X41.339 Y26.413 E18.54075
G1 X41.601 Y26.820 E18.55572
G1 X41.901 Y27.199 E18.57067
G1 X42.237 Y27.546 E18.58562
G1 X42.606 Y27.859 E18.60059
G1 X43.004 Y28.134 E18.61554
G1 X43.426 Y28.368 E18.63049
G1 X43.870 Y28.561 E18.64546
G1 X44.330 Y28.709 E18.66040
G1 X44.802 Y28.811 E18.67536
G1 X45.282 Y28.866 E18.69032
G1 X45.765 Y28.874 E18.70526
G1 X46.248 Y28.834 E18.72024
G1 X46.723 Y28.748 E18.73518
G1 X47.188 Y28.615 E18.75013
G1 X47.637 Y28.437 E18.76510
G1 X48.067 Y28.217 E18.78004
G1 X48.474 Y27.955 E18.79501
G1 X48.852 Y27.654 E18.80997
G1 X49.199 Y27.318 E18.82491
G1 X49.512 Y26.949 E18.83988
G1 X49.787 Y26.552 E18.85483
G1 X50.022 Y26.130 E18.86978
G1 X50.214 Y25.686 E18.88475
G1 X50.362 Y25.226 E18.89969
G1 X50.464 Y24.753 E18.91466
G1 X50.519 Y24.274 E18.92958
G1 X50.527 Y23.789 E18.94458
G1 X50.488 Y23.308 E18.95953
G1 X50.401 Y22.833 E18.97447
G1 X50.269 Y22.368 E18.98942
G1 X50.091 Y21.918 E19.00439
G1 X49.870 Y21.489 E19.01933
G1 X49.608 Y21.082 E19.03430
G1 X49.308 Y20.703 E19.04925
G1 X48.972 Y20.356 E19.06420
G1 X48.603 Y20.043 E19.07917
G1 X48.206 Y19.768 E19.09412
G1 X47.783 Y19.534 E19.10907
G1 X47.359 Y19.350 E19.12336
G1 X47.421 Y19.051 E19.13280
G1 X131.788 Y19.052 E21.74322
G1 X131.846 Y19.356 E21.75282
G1 X131.572 Y19.465 E21.76195
G1 X131.142 Y19.685 E21.77689
G1 X130.735 Y19.947 E21.79186
G1 X130.357 Y20.248 E21.80681
G1 X130.010 Y20.584 E21.82176
G1 X129.697 Y20.953 E21.83673
G1 X129.422 Y21.350 E21.85168
G1 X129.187 Y21.772 E21.86663
G1 X128.995 Y22.216 E21.88160
G1 X128.847 Y22.676 E21.89654
G1 X128.745 Y23.149 E21.91150
G1 X128.690 Y23.628 E21.92642
G1 X128.682 Y24.113 E21.94143
G1 X128.721 Y24.594 E21.95638
G1 X128.808 Y25.069 E21.97132
G1 X128.940 Y25.534 E21.98627
G1 X129.118 Y25.984 E22.00124
G1 X129.339 Y26.413 E22.01618
G1 X129.601 Y26.820 E22.03114
G1 X129.901 Y27.199 E22.04610
G1 X130.237 Y27.546 E22.06105
G1 X130.606 Y27.859 E22.07602
G1 X131.004 Y28.134 E22.09096
G1 X131.426 Y28.368 E22.10592
G1 X131.870 Y28.561 E22.12088
G1 X132.330 Y28.709 E22.13583
G1 X132.802 Y28.811 E22.15079
G1 X133.282 Y28.866 E22.16575
G1 X133.765 Y28.874 E22.18069
G1 X134.248 Y28.834 E22.19566
G1 X134.723 Y28.748 E22.21061
G1 X135.188 Y28.615 E22.22556
G1 X135.637 Y28.437 E22.24053
G1 X136.067 Y28.217 E22.25547
G1 X136.474 Y27.955 E22.27044
G1 X136.852 Y27.654 E22.28539
G1 X137.199 Y27.318 E22.30034
G1 X137.512 Y26.949 E22.31531
G1 X137.787 Y26.552 E22.33026
G1 X138.022 Y26.130 E22.34521
G1 X138.205 Y25.706 E22.35949
G1 X138.504 Y25.768 E22.36893
G1 X138.504 Y40.134 E22.81343
G1 X138.199 Y40.192 E22.82303
G1 X138.091 Y39.918 E22.83215
G1 X137.870 Y39.489 E22.84709
G1 X137.608 Y39.082 E22.86206
G1 X137.308 Y38.703 E22.87701
G1 X136.972 Y38.356 E22.89196
G1 X136.603 Y38.043 E22.90693
G1 X136.206 Y37.768 E22.92188
G1 X135.783 Y37.534 E22.93683
G1 X135.339 Y37.341 E22.95180
G1 X134.880 Y37.194 E22.96674
G1 X134.407 Y37.091 E22.98170
G1 X133.927 Y37.036 E22.99665
G1 X133.466 Y37.028 E23.01092
G1 X132.962 Y37.068 E23.02656
G1 X132.486 Y37.154 E23.04152
G1 X132.021 Y37.287 E23.05647
G1 X131.572 Y37.465 E23.07144
G1 X131.142 Y37.685 E23.08638
G1 X130.735 Y37.947 E23.10135
G1 X130.357 Y38.248 E23.11631
G1 X130.010 Y38.584 E23.13125
G1 X129.697 Y38.953 E23.14622
G1 X129.422 Y39.350 E23.16117
G1 X129.187 Y39.772 E23.17612
G1 X128.995 Y40.216 E23.19109
G1 X128.847 Y40.676 E23.20603
G1 X128.745 Y41.149 E23.22100
G1 X128.690 Y41.628 E23.23592
G1 X128.682 Y42.113 E23.25092
G1 X128.721 Y42.594 E23.26587
G1 X128.808 Y43.069 E23.28081
G1 X128.940 Y43.534 E23.29576
G1 X129.118 Y43.984 E23.31073
G1 X129.339 Y44.413 E23.32567
G1 X129.601 Y44.820 E23.34064
G1 X129.901 Y45.199 E23.35559
G1 X130.237 Y45.546 E23.37054
G1 X130.606 Y45.859 E23.38551
G1 X131.004 Y46.134 E23.40046
G1 X131.426 Y46.368 E23.41541
G1 X131.850 Y46.552 E23.42970
G1 X131.788 Y46.851 E23.43915
G1 X47.420 Y46.851 E26.04960
G1 X47.376 Y46.620 E26.05688
G1 X47.652 Y46.608 F7800.000
G1 X132.160 Y19.132 F7800.000
G1 X132.943 Y19.061 E26.08121 F1800.000
G1 X133.483 Y19.040 E26.09793
G1 X134.392 Y19.071 E26.12607
G1 X135.047 Y19.140 E26.14644
G1 X137.391 Y19.891 F7800.000
G1 X137.584 Y19.635 E26.15637 F1800.000
G1 X137.796 Y19.760 E26.16396
