; generated by Slic3r 1.2.9 on 2018-07-17 at 14:04:26

; external perimeters extrusion width = 0.50mm
; perimeters extrusion width = 0.72mm
; infill extrusion width = 0.72mm
; solid infill extrusion width = 0.72mm
; top infill extrusion width = 0.72mm

M107
M104 S200 ; set temperature
G28 ; home all axes
G1 Z5 F5000 ; lift nozzle

M109 S200 ; wait for temperature to be reached
G21 ; set units to millimeters
G90 ; use absolute coordinates
M82 ; use absolute distances for extrusion
G92 E0
G1 Z0.350 F7800.000
G1 E-2.00000 F2400.00000
G92 E0
G1 X47.854 Y86.773 F7800.000
G1 E2.00000 F2400.00000
G1 X50.006 Y85.981 E2.07096 F1800.000
G1 X51.184 Y85.875 E2.10758
G1 X148.816 Y85.875 E5.12841
G1 X151.074 Y86.272 E5.19937
G1 X153.063 Y87.415 E5.27033 F1800.000
G1 X154.542 Y89.168 E5.34130
G1 X155.335 Y91.320 E5.41226
G1 X155.440 Y92.499 E5.44887
G1 X155.443 Y106.800 E5.89136
G1 X155.046 Y109.059 E5.96233
G1 X153.902 Y111.047 E6.03329
G1 X152.150 Y112.526 E6.10425
G1 X150.596 Y113.182 E6.15644
G1 X150.208 Y113.283 E6.16885
G1 X149.600 Y113.408 E6.18803
G1 X149.126 Y113.478 E6.20289
G1 X148.558 Y113.530 E6.22051
G1 X148.000 Y113.547 E6.23779
G1 X52.000 Y113.547 E9.20816
G1 X51.441 Y113.530 E9.22545
G1 X50.813 Y113.471 E9.24499
G1 X50.192 Y113.370 E9.26445
G1 X49.593 Y113.233 E9.28346
G1 X49.404 Y113.182 E9.28950
G1 X47.335 Y112.193 E9.36047
G1 X45.727 Y110.558 E9.43143
G1 X44.772 Y108.473 E9.50239
G1 X44.557 Y106.800 E9.55459
G1 X44.560 Y92.499 E9.99708
G1 X44.957 Y90.240 E10.06804
G1 X46.101 Y88.252 E10.13900
G1 X47.796 Y86.822 E10.20764
G1 E8.20764 F2400.00000
G92 E0
G1 X91.050 Y102.400 F7800.000
G1 E2.00000 F2400.00000
G1 X108.950 Y102.400 E2.55384 F1800.000
G1 X108.950 Y94.100 E2.81065
G1 X119.526 Y94.100 E3.13788
G1 X119.603 Y94.568 E3.15257
G1 X119.761 Y95.244 E3.17404
G1 X119.962 Y95.907 E3.19549
G1 X120.206 Y96.557 E3.21697
G1 X120.493 Y97.188 E3.23842
G1 X120.817 Y97.796 E3.25973
G1 X121.186 Y98.389 E3.28133
G1 X121.590 Y98.954 E3.30282
G1 X122.030 Y99.489 E3.32427
G1 X122.504 Y99.996 E3.34575
G1 X123.010 Y100.470 E3.36719
G1 X123.547 Y100.910 E3.38868
G1 X124.110 Y101.314 E3.41012
G1 X124.700 Y101.680 E3.43160
G1 X125.306 Y102.005 E3.45288
G1 X125.943 Y102.294 E3.47451
G1 X126.592 Y102.538 E3.49598
G1 X127.256 Y102.739 E3.51745
G1 X127.932 Y102.897 E3.53890
G1 X128.616 Y103.010 E3.56038
G1 X129.301 Y103.077 E3.58167
G1 X130.000 Y103.101 E3.60329
G1 X130.693 Y103.078 E3.62477
G1 X131.384 Y103.010 E3.64623
G1 X132.068 Y102.897 E3.66770
G1 X132.744 Y102.739 E3.68915
G1 X133.402 Y102.540 E3.71046
G1 X134.056 Y102.294 E3.73206
G1 X134.689 Y102.007 E3.75356
G1 X135.300 Y101.680 E3.77500
G1 X135.890 Y101.314 E3.79648
G1 X136.453 Y100.910 E3.81793
G1 X136.990 Y100.470 E3.83941
G1 X137.496 Y99.996 E3.86085
G1 X137.970 Y99.489 E3.88234
G1 X138.406 Y98.958 E3.90361
G1 X138.814 Y98.390 E3.92525
G1 X139.180 Y97.801 E3.94671
G1 X139.507 Y97.188 E3.96819
G1 X139.794 Y96.557 E3.98963
G1 X140.038 Y95.907 E4.01111
G1 X140.238 Y95.249 E4.03239
G1 X140.397 Y94.568 E4.05402
G1 X140.474 Y94.100 E4.06872
G1 X147.216 Y94.100 E4.27732
G1 X147.218 Y105.323 E4.62457
G1 X52.782 Y105.323 E7.54653
G1 X52.784 Y94.100 E7.89378
G1 X59.526 Y94.100 E8.10238
G1 X59.603 Y94.568 E8.11706
G1 X59.761 Y95.244 E8.13853
G1 X59.962 Y95.907 E8.15999
G1 X60.206 Y96.557 E8.18146
G1 X60.493 Y97.188 E8.20291
G1 X60.817 Y97.796 E8.22422
G1 X61.186 Y98.389 E8.24582
G1 X61.590 Y98.954 E8.26732
G1 X62.030 Y99.489 E8.28876
G1 X62.504 Y99.996 E8.31025
G1 X63.010 Y100.470 E8.33169
G1 X63.547 Y100.910 E8.35317
G1 X64.110 Y101.314 E8.37461
G1 X64.700 Y101.680 E8.39610
G1 X65.311 Y102.007 E8.41754
G1 X65.944 Y102.294 E8.43902
G1 X66.592 Y102.538 E8.46047
G1 X67.257 Y102.739 E8.48195
G1 X67.932 Y102.897 E8.50340
G1 X68.616 Y103.010 E8.52487
G1 X69.301 Y103.077 E8.54616
G1 X70.000 Y103.101 E8.56778
G1 X70.693 Y103.078 E8.58926
G1 X71.384 Y103.010 E8.61072
G1 X72.068 Y102.897 E8.63219
G1 X72.743 Y102.739 E8.65365
G1 X73.402 Y102.540 E8.67495
G1 X74.056 Y102.294 E8.69656
G1 X74.689 Y102.007 E8.71805
G1 X75.300 Y101.680 E8.73950
G1 X75.890 Y101.314 E8.76098
G1 X76.453 Y100.910 E8.78242
G1 X76.990 Y100.470 E8.80390
G1 X77.496 Y99.996 E8.82535
G1 X77.970 Y99.489 E8.84683
G1 X78.406 Y98.958 E8.86810
G1 X78.814 Y98.389 E8.88974
G1 X79.180 Y97.801 E8.91120
G1 X79.507 Y97.188 E8.93268
G1 X79.794 Y96.557 E8.95413
G1 X80.038 Y95.907 E8.97561
G1 X80.239 Y95.244 E8.99706
G1 X80.397 Y94.568 E9.01853
G1 X80.474 Y94.100 E9.03321
G1 X91.050 Y94.100 E9.36045
G1 X91.050 Y102.325 E9.61494
G1 X91.675 Y101.775 F7800.000
G1 X108.325 Y101.775 E10.13011 F1800.000
G1 X108.325 Y93.475 E10.38692
G1 X120.078 Y93.475 E10.75057
G1 X120.110 Y93.802 E10.76075
G1 X120.216 Y94.446 E10.78093
G1 X120.365 Y95.082 E10.80114
G1 X120.554 Y95.706 E10.82133
G1 X120.784 Y96.318 E10.84154
G1 X121.053 Y96.912 E10.86172
G1 X121.359 Y97.483 E10.88177
G1 X121.705 Y98.042 E10.90211
G1 X122.086 Y98.573 E10.92233
G1 X122.500 Y99.077 E10.94251
G1 X122.947 Y99.554 E10.96273
G1 X123.423 Y100.000 E10.98290
G1 X123.928 Y100.414 E11.00312
G1 X124.458 Y100.794 E11.02330
G1 X125.013 Y101.139 E11.04351
G1 X125.583 Y101.444 E11.06353
G1 X126.183 Y101.716 E11.08390
G1 X126.793 Y101.946 E11.10409
G1 X127.418 Y102.135 E11.12430
G1 X128.054 Y102.284 E11.14449
G1 X128.698 Y102.390 E11.16469
G1 X129.342 Y102.454 E11.18472
G1 X130.000 Y102.475 E11.20508
G1 X130.652 Y102.454 E11.22529
G1 X131.302 Y102.390 E11.24548
G1 X131.946 Y102.284 E11.26568
G1 X132.582 Y102.135 E11.28587
G1 X133.202 Y101.947 E11.30592
G1 X133.817 Y101.716 E11.32626
G1 X134.412 Y101.447 E11.34648
G1 X134.987 Y101.139 E11.36666
G1 X135.542 Y100.794 E11.38687
G1 X136.072 Y100.414 E11.40705
G1 X136.577 Y100.000 E11.42727
G1 X137.053 Y99.554 E11.44745
G1 X137.500 Y99.077 E11.46766
G1 X137.910 Y98.577 E11.48768
G1 X138.294 Y98.042 E11.50805
G1 X138.639 Y97.488 E11.52824
G1 X138.947 Y96.912 E11.54845
G1 X139.216 Y96.318 E11.56863
G1 X139.446 Y95.706 E11.58884
G1 X139.634 Y95.087 E11.60886
G1 X139.784 Y94.446 E11.62923
G1 X139.890 Y93.802 E11.64942
G1 X139.922 Y93.475 E11.65960
G1 X147.841 Y93.475 E11.90461
G1 X147.843 Y105.947 E12.29053
G1 X52.157 Y105.947 E15.25117
G1 X52.159 Y93.475 E15.63709
G1 X60.078 Y93.475 E15.88210
G1 X60.110 Y93.802 E15.89227
G1 X60.216 Y94.446 E15.91247
G1 X60.365 Y95.082 E15.93268
G1 X60.554 Y95.706 E15.95286
G1 X60.784 Y96.318 E15.97307
G1 X61.053 Y96.912 E15.99325
G1 X61.359 Y97.483 E16.01331
G1 X61.705 Y98.042 E16.03364
G1 X62.086 Y98.573 E16.05387
G1 X62.500 Y99.077 E16.07404
G1 X62.947 Y99.554 E16.09426
G1 X63.423 Y100.000 E16.11444
G1 X63.928 Y100.414 E16.13465
G1 X64.458 Y100.794 E16.15483
G1 X65.013 Y101.139 E16.17505
G1 X65.588 Y101.447 E16.19523
G1 X66.183 Y101.716 E16.21544
G1 X66.793 Y101.946 E16.23562
G1 X67.418 Y102.135 E16.25583
G1 X68.054 Y102.284 E16.27602
G1 X68.698 Y102.390 E16.29623
G1 X69.342 Y102.454 E16.31626
G1 X70.000 Y102.475 E16.33661
G1 X70.652 Y102.454 E16.35682
G1 X71.302 Y102.390 E16.37701
G1 X71.946 Y102.284 E16.39722
G1 X72.582 Y102.135 E16.41741
G1 X73.202 Y101.947 E16.43745
G1 X73.817 Y101.716 E16.45779
G1 X74.412 Y101.447 E16.47801
G1 X74.987 Y101.139 E16.49819
G1 X75.542 Y100.794 E16.51841
G1 X76.072 Y100.414 E16.53859
G1 X76.577 Y100.000 E16.55880
G1 X77.053 Y99.554 E16.57898
G1 X77.500 Y99.077 E16.59920
G1 X77.910 Y98.577 E16.61921
G1 X78.294 Y98.042 E16.63958
G1 X78.639 Y97.488 E16.65977
G1 X78.947 Y96.912 E16.67999
G1 X79.216 Y96.318 E16.70017
G1 X79.446 Y95.706 E16.72038
G1 X79.635 Y95.082 E16.74056
G1 X79.784 Y94.446 E16.76077
G1 X79.890 Y93.802 E16.78096
G1 X79.922 Y93.475 E16.79114
G1 X91.675 Y93.475 E17.15479
G1 X91.675 Y101.700 E17.40928
G1 X92.300 Y101.150 F7800.000
G1 X107.700 Y101.150 E17.88577 F1800.000
G1 X107.700 Y92.850 E18.14259
G1 X120.661 Y92.850 E18.54363
G1 X120.730 Y93.721 E18.57065
G1 X120.830 Y94.324 E18.58957
G1 X120.968 Y94.920 E18.60851
G1 X121.146 Y95.505 E18.62743
G1 X121.362 Y96.078 E18.64638
G1 X121.614 Y96.635 E18.66529
G1 X121.900 Y97.171 E18.68409
G1 X122.225 Y97.694 E18.70315
G1 X122.582 Y98.192 E18.72211
G1 X122.970 Y98.665 E18.74102
G1 X123.389 Y99.112 E18.75997
G1 X123.835 Y99.530 E18.77888
G1 X124.308 Y99.918 E18.79783
G1 X124.805 Y100.274 E18.81674
G1 X125.325 Y100.598 E18.83569
G1 X125.860 Y100.883 E18.85445
G1 X126.422 Y101.138 E18.87355
G1 X126.994 Y101.354 E18.89247
G1 X127.580 Y101.532 E18.91142
G1 X128.176 Y101.670 E18.93034
G1 X128.780 Y101.770 E18.94928
G1 X129.383 Y101.830 E18.96805
G1 X130.000 Y101.850 E18.98714
G1 X130.612 Y101.830 E19.00607
G1 X131.220 Y101.770 E19.02500
G1 X131.824 Y101.670 E19.04394
G1 X132.420 Y101.532 E19.06286
G1 X133.001 Y101.355 E19.08165
G1 X133.578 Y101.139 E19.10072
G1 X134.136 Y100.886 E19.11967
G1 X134.675 Y100.598 E19.13858
G1 X135.195 Y100.274 E19.15753
G1 X135.692 Y99.918 E19.17644
G1 X136.165 Y99.530 E19.19540
G1 X136.611 Y99.112 E19.21431
G1 X137.030 Y98.665 E19.23326
G1 X137.415 Y98.196 E19.25201
G1 X137.774 Y97.694 E19.27112
G1 X138.097 Y97.175 E19.29003
G1 X138.386 Y96.635 E19.30898
G1 X138.638 Y96.078 E19.32790
G1 X138.854 Y95.505 E19.34685
G1 X139.030 Y94.925 E19.36561
G1 X139.170 Y94.324 E19.38470
G1 X139.270 Y93.721 E19.40363
G1 X139.339 Y92.850 E19.43065
G1 X148.466 Y92.850 E19.71305
G1 X148.468 Y106.534 E20.13644
G1 X147.986 Y106.572 E20.15139
G1 X52.014 Y106.572 E23.12089
G1 X51.532 Y106.534 E23.13585
G1 X51.534 Y92.850 E23.55923
G1 X60.661 Y92.850 E23.84163
G1 X60.730 Y93.721 E23.86865
G1 X60.830 Y94.324 E23.88758
G1 X60.968 Y94.920 E23.90652
G1 X61.146 Y95.505 E23.92544
G1 X61.362 Y96.078 E23.94439
G1 X61.614 Y96.635 E23.96330
G1 X61.900 Y97.171 E23.98209
G1 X62.225 Y97.694 E24.00116
G1 X62.582 Y98.192 E24.02011
G1 X62.970 Y98.665 E24.03902
G1 X63.389 Y99.112 E24.05798
G1 X63.835 Y99.530 E24.07689
G1 X64.308 Y99.918 E24.09584
G1 X64.805 Y100.274 E24.11475
G1 X65.325 Y100.598 E24.13370
G1 X65.864 Y100.886 E24.15261
G1 X66.422 Y101.138 E24.17156
G1 X66.994 Y101.354 E24.19048
G1 X67.580 Y101.532 E24.20942
G1 X68.176 Y101.670 E24.22835
G1 X68.780 Y101.770 E24.24728
G1 X69.383 Y101.830 E24.26605
G1 X70.000 Y101.850 E24.28514
G1 X70.612 Y101.830 E24.30408
G1 X71.220 Y101.770 E24.32301
G1 X71.824 Y101.670 E24.34195
G1 X72.420 Y101.532 E24.36087
G1 X73.001 Y101.355 E24.37965
G1 X73.578 Y101.139 E24.39873
G1 X74.136 Y100.886 E24.41768
G1 X74.675 Y100.598 E24.43659
G1 X75.195 Y100.274 E24.45554
G1 X75.692 Y99.918 E24.47445
G1 X76.165 Y99.530 E24.49340
G1 X76.611 Y99.112 E24.51231
G1 X77.030 Y98.665 E24.53127
G1 X77.415 Y98.196 E24.55002
G1 X77.774 Y97.694 E24.56913
G1 X78.097 Y97.175 E24.58804
G1 X78.386 Y96.635 E24.60699
G1 X78.638 Y96.078 E24.62590
G1 X78.854 Y95.505 E24.64485
G1 X79.032 Y94.920 E24.66377
G1 X79.170 Y94.324 E24.68271
G1 X79.270 Y93.721 E24.70164
G1 X79.339 Y92.850 E24.72866
G1 X92.300 Y92.850 E25.12970
G1 X92.300 Y101.075 E25.38419
G1 X92.300 Y101.650 F7800.000
G1 X90.672 Y102.330 F7800.000
G1 X82.820 Y94.478 E25.72820 F1800.000
G1 X83.705 Y94.478 E25.75561
G1 X90.672 Y101.445 E26.06085
G1 X90.672 Y100.560 E26.08827
G1 X84.590 Y94.478 E26.35473
G1 X85.475 Y94.478 E26.38215
G1 X90.672 Y99.675 E26.60984
G1 X90.672 Y98.790 E26.63725
G1 X86.360 Y94.478 E26.82618
G1 X87.245 Y94.478 E26.85359
G1 X90.672 Y97.905 E27.00374
G1 X90.672 Y97.020 E27.03116
G1 X88.130 Y94.478 E27.14253
G1 X89.015 Y94.478 E27.16995
G1 X90.672 Y96.135 E27.24256
G1 X90.672 Y95.251 E27.26997
G1 X89.899 Y94.478 E27.30381
G1 X81.935 Y94.478 F7800.000
G1 X92.401 Y104.944 E27.76236 F1800.000
G1 X91.516 Y104.944 E27.78978
G1 X81.051 Y94.478 E28.24833
G1 X80.663 Y94.976 E28.26786
G1 X90.631 Y104.944 E28.70462
G1 X89.746 Y104.944 E28.73203
G1 X80.472 Y95.669 E29.13841
G1 X80.244 Y96.326 E29.15996
G1 X88.861 Y104.944 E29.53753
G1 X87.977 Y104.944 E29.56495
G1 X79.984 Y96.951 E29.91517
G1 X79.693 Y97.545 E29.93566
G1 X87.092 Y104.944 E30.25984
G1 X86.207 Y104.944 E30.28726
G1 X79.374 Y98.111 E30.58664
G1 X79.028 Y98.650 E30.60648
G1 X85.322 Y104.944 E30.88224
G1 X84.437 Y104.944 E30.90966
G1 X78.657 Y99.164 E31.16291
G1 X78.258 Y99.650 E31.18239
G1 X83.552 Y104.944 E31.41435
G1 X82.667 Y104.944 E31.44176
G1 X77.833 Y100.110 E31.65359
G1 X77.383 Y100.545 E31.67297
G1 X81.782 Y104.944 E31.86573
G1 X80.897 Y104.944 E31.89314
G1 X76.909 Y100.956 E32.06789
G1 X76.411 Y101.342 E32.08743
G1 X80.013 Y104.944 E32.24526
G1 X79.128 Y104.944 E32.27267
G1 X75.886 Y101.703 E32.41469
G1 X75.336 Y102.037 E32.43464
G1 X78.243 Y104.944 E32.56199
G1 X77.358 Y104.944 E32.58941
G1 X74.758 Y102.344 E32.70331
G1 X74.149 Y102.620 E32.72403
G1 X76.473 Y104.944 E32.82584
G1 X75.588 Y104.944 E32.85326
G1 X73.508 Y102.864 E32.94441
G1 X72.833 Y103.074 E32.96631
G1 X74.703 Y104.944 E33.04826
G1 X73.818 Y104.944 E33.07567
G1 X72.120 Y103.246 E33.15006
G1 X71.366 Y103.376 E33.17379
G1 X72.933 Y104.944 E33.24247
G1 X72.049 Y104.944 E33.26989
G1 X70.561 Y103.457 E33.33505
G1 X69.693 Y103.474 E33.36195
G1 X71.164 Y104.944 E33.42637
G1 X70.279 Y104.944 E33.45378
G1 X68.752 Y103.417 E33.52067
G1 X67.719 Y103.269 E33.55301
G1 X69.394 Y104.944 E33.62639
G1 X68.509 Y104.944 E33.65380
G1 X66.524 Y102.959 E33.74077
G1 X65.064 Y102.384 F7800.000
G1 X67.624 Y104.944 E33.85294 F1800.000
G1 X66.739 Y104.944 E33.88036
G1 X56.274 Y94.478 E34.33891
G1 X57.158 Y94.478 E34.36633
G1 X60.116 Y97.436 E34.49591
G1 X59.541 Y95.976 F7800.000
G1 X58.043 Y94.478 E34.56153 F1800.000
G1 X58.928 Y94.478 E34.58894
G1 X59.231 Y94.781 E34.60220
G1 X55.389 Y94.478 F7800.000
G1 X65.854 Y104.944 E35.06076 F1800.000
G1 X64.969 Y104.944 E35.08817
G1 X54.504 Y94.478 E35.54673
G1 X53.619 Y94.478 E35.57414
G1 X64.085 Y104.944 E36.03270
G1 X63.200 Y104.944 E36.06011
G1 X53.162 Y94.907 E36.49990
G1 X53.162 Y95.791 E36.52731
G1 X62.315 Y104.944 E36.92833
G1 X61.430 Y104.944 E36.95574
G1 X53.162 Y96.676 E37.31800
G1 X53.162 Y97.561 E37.34541
G1 X60.545 Y104.944 E37.66890
G1 X59.660 Y104.944 E37.69631
G1 X53.162 Y98.446 E37.98104
G1 X53.162 Y99.330 E38.00845
G1 X58.775 Y104.944 E38.25441
G1 X57.890 Y104.944 E38.28182
G1 X53.162 Y100.215 E38.48902
G1 X53.161 Y101.100 E38.51643
G1 X57.005 Y104.944 E38.68485
G1 X56.121 Y104.944 E38.71227
G1 X53.161 Y101.985 E38.84193
G1 X53.161 Y102.869 E38.86934
G1 X55.236 Y104.944 E38.96024
G1 X54.351 Y104.944 E38.98766
G1 X53.161 Y103.754 E39.03979
G1 X53.161 Y104.639 E39.06720
G1 X53.466 Y104.944 E39.08056
G1 X91.120 Y102.778 F7800.000
G1 X93.286 Y104.944 E39.17545 F1800.000
G1 X94.171 Y104.944 E39.20287
G1 X92.005 Y102.778 E39.29775
G1 X92.890 Y102.778 E39.32517
G1 X95.056 Y104.944 E39.42006
G1 X95.941 Y104.944 E39.44747
G1 X93.775 Y102.778 E39.54236
G1 X94.660 Y102.778 E39.56978
G1 X96.825 Y104.944 E39.66466
G1 X97.710 Y104.944 E39.69208
G1 X95.545 Y102.778 E39.78697
G1 X96.430 Y102.778 E39.81438
G1 X98.595 Y104.944 E39.90927
G1 X99.480 Y104.944 E39.93668
G1 X97.315 Y102.778 E40.03157
G1 X98.199 Y102.778 E40.05899
G1 X100.365 Y104.944 E40.15387
G1 X101.250 Y104.944 E40.18129
G1 X99.084 Y102.778 E40.27618
G1 X99.969 Y102.778 E40.30359
G1 X102.135 Y104.944 E40.39848
G1 X103.020 Y104.944 E40.42589
G1 X100.854 Y102.778 E40.52078
G1 X101.739 Y102.778 E40.54820
G1 X103.905 Y104.944 E40.64308
G1 X104.790 Y104.944 E40.67050
G1 X102.624 Y102.778 E40.76539
G1 X103.509 Y102.778 E40.79280
G1 X105.674 Y104.944 E40.88769
G1 X106.559 Y104.944 E40.91511
G1 X104.394 Y102.778 E41.00999
G1 X105.279 Y102.778 E41.03741
G1 X107.444 Y104.944 E41.13230
G1 X108.329 Y104.944 E41.15971
G1 X106.163 Y102.778 E41.25460
G1 X107.048 Y102.778 E41.28201
G1 X109.214 Y104.944 E41.37690
G1 X110.099 Y104.944 E41.40432
G1 X107.933 Y102.778 E41.49920
G1 X108.818 Y102.778 E41.52662
G1 X110.984 Y104.944 E41.62151
G1 X111.869 Y104.944 E41.64892
G1 X109.328 Y102.404 E41.76022
G1 X109.328 Y101.519 E41.78764
G1 X112.754 Y104.944 E41.93772
G1 X113.638 Y104.944 E41.96513
G1 X109.328 Y100.634 E42.15398
G1 X109.328 Y99.749 E42.18139
G1 X114.523 Y104.944 E42.40901
G1 X115.408 Y104.944 E42.43643
G1 X109.328 Y98.864 E42.70282
G1 X109.328 Y97.979 E42.73023
G1 X116.293 Y104.944 E43.03539
G1 X117.178 Y104.944 E43.06281
G1 X109.328 Y97.094 E43.40674
G1 X109.328 Y96.209 E43.43416
G1 X118.063 Y104.944 E43.81686
