; generated by Slic3r 1.2.9 on 2018-07-17 at 14:04:55

; external perimeters extrusion width = 0.50mm
; perimeters extrusion width = 0.72mm
; infill extrusion width = 0.72mm
; solid infill extrusion width = 0.72mm
; top infill extrusion width = 0.72mm

M107
M104 S200 ; set temperature
G28 ; home all axes
G1 Z5 F5000 ; lift nozzle

M109 S200 ; wait for temperature to be reached
G21 ; set units to millimeters
G90 ; use absolute coordinates
M82 ; use absolute distances for extrusion
G92 E0
G1 Z0.350 F7800.000
G1 E-2.00000 F2400.00000
G92 E0
G1 X21.302 Y13.562 F7800.000
G1 E2.00000 F2400.00000
G1 X21.585 Y13.153 E2.01539 F1800.000
G1 X21.897 Y12.758 E2.03096
G1 X22.228 Y12.388 E2.04634
G1 X22.548 Y12.070 E2.06026
G1 X22.914 Y11.747 E2.07539
G1 X23.299 Y11.447 E2.09049
G1 X23.702 Y11.170 E2.10561
G1 X24.121 Y10.918 E2.12074
G1 X24.554 Y10.692 E2.13586
G1 X25.003 Y10.492 E2.15105
G1 X25.467 Y10.318 E2.16640
G1 X25.942 Y10.173 E2.18176
G1 X26.376 Y10.068 E2.19557
G1 X26.866 Y9.979 E2.21098
G1 X27.359 Y9.921 E2.22633
G1 X27.850 Y9.894 E2.24156
G1 X164.172 Y9.892 E6.45954
G1 X164.926 Y9.938 E6.48290 F1800.000
G1 X165.694 Y10.060 E6.50698
G1 X166.440 Y10.253 E6.53082
G1 X167.159 Y10.514 E6.55450
G1 X167.613 Y10.720 E6.56992
G1 X168.008 Y10.929 E6.58373
G1 X168.662 Y11.341 E6.60765
G1 X169.277 Y11.815 E6.63168
G1 X169.817 Y12.321 E6.65459
G1 X170.326 Y12.896 E6.67834
G1 X170.769 Y13.502 E6.70157
G1 X171.173 Y14.185 E6.72612
G1 X171.500 Y14.886 E6.75005
G1 X171.750 Y15.586 E6.77305
G1 X171.936 Y16.312 E6.79622
G1 X172.054 Y17.063 E6.81975
G1 X172.102 Y17.938 E6.84687
G1 X172.102 Y43.938 E7.65135
G1 X172.091 Y44.349 E7.66406
G1 X172.050 Y44.847 E7.67952
G1 X171.979 Y45.337 E7.69485
G1 X171.882 Y45.804 E7.70959
G1 X171.675 Y46.523 E7.73276
G1 X171.479 Y47.041 E7.74988
G1 X171.173 Y47.691 E7.77211
G1 X170.808 Y48.314 E7.79447
G1 X170.492 Y48.766 E7.81153
G1 X170.018 Y49.341 E7.83460
G1 X169.577 Y49.791 E7.85407
G1 X169.094 Y50.212 E7.87391
G1 X168.662 Y50.535 E7.89059
G1 X168.038 Y50.930 E7.91344
G1 X167.555 Y51.184 E7.93034
G1 X166.882 Y51.472 E7.95297
G1 X166.220 Y51.688 E7.97453
G1 X165.680 Y51.819 E7.99172
G1 X164.959 Y51.934 E8.01431
G1 X164.259 Y51.982 E8.03601
G1 X28.055 Y51.985 E12.25036
G1 X27.443 Y51.962 E12.26930
G1 X26.945 Y51.908 E12.28479
G1 X26.448 Y51.823 E12.30042
G1 X25.953 Y51.706 E12.31616
G1 X25.442 Y51.549 E12.33269
G1 X24.949 Y51.362 E12.34900
G1 X24.302 Y51.057 E12.37113
G1 X23.837 Y50.791 E12.38770
G1 X23.269 Y50.407 E12.40891
G1 X22.833 Y50.060 E12.42615
G1 X22.293 Y49.555 E12.44904
G1 X21.953 Y49.185 E12.46458
G1 X21.611 Y48.759 E12.48149
G1 X21.287 Y48.291 E12.49911
G1 X20.952 Y47.720 E12.51957
G1 X20.712 Y47.231 E12.53645
G1 X20.453 Y46.577 E12.55820
G1 X20.290 Y46.051 E12.57525
G1 X20.131 Y45.341 E12.59777
G1 X20.059 Y44.842 E12.61336
G1 X20.007 Y43.938 E12.64137
G1 X20.012 Y17.682 E13.45375
G1 X20.055 Y17.068 E13.47282
G1 X20.125 Y16.568 E13.48843
G1 X20.227 Y16.072 E13.50408
G1 X20.360 Y15.584 E13.51974
G1 X20.533 Y15.079 E13.53626
G1 X20.726 Y14.615 E13.55183
G1 X20.952 Y14.155 E13.56766
G1 X21.262 Y13.625 E13.58667
G1 E11.58667 F2400.00000
G92 E0
G1 X147.812 Y38.567 F7800.000
G1 E2.00000 F2400.00000
G1 X147.844 Y38.281 E2.00892 F1800.000
G1 X147.910 Y37.965 E2.01888
G1 X147.997 Y37.685 E2.02797
G1 X148.209 Y37.217 E2.04386
G1 X148.363 Y36.966 E2.05298
G1 X148.560 Y36.704 E2.06312
G1 X148.926 Y36.331 E2.07929
G1 X149.383 Y36.000 E2.09676
G1 X149.675 Y35.845 E2.10696
G1 X149.946 Y35.732 E2.11605
G1 X150.450 Y35.593 E2.13223
G1 X151.038 Y35.538 E2.15051
G1 X161.066 Y35.538 E2.46077 F1800.000
G1 X161.465 Y35.563 E2.47314
G1 X161.970 Y35.669 E2.48911
G1 X162.250 Y35.765 E2.49828
G1 X162.614 Y35.936 E2.51071
G1 X162.890 Y36.105 E2.52074
G1 X163.121 Y36.279 E2.52969
G1 X163.359 Y36.495 E2.53963
G1 X163.553 Y36.709 E2.54857
G1 X163.746 Y36.966 E2.55851
G1 X163.897 Y37.212 E2.56745
G1 X164.039 Y37.500 E2.57739
G1 X164.142 Y37.771 E2.58633
G1 X164.227 Y38.081 E2.59630
G1 X164.282 Y38.402 E2.60637
G1 X164.305 Y38.768 E2.61772
G1 X164.291 Y39.093 E2.62777
G1 X164.244 Y39.412 E2.63776
G1 X164.176 Y39.695 E2.64675
G1 X164.039 Y40.078 E2.65935
G1 X163.795 Y40.537 E2.67544
G1 X163.552 Y40.870 E2.68819
G1 X163.213 Y41.219 E2.70324
G1 X162.859 Y41.492 E2.71706
G1 X162.434 Y41.732 E2.73217
G1 X161.977 Y41.905 E2.74728
G1 X161.542 Y42.002 E2.76108
G1 X161.068 Y42.038 E2.77579
G1 X151.044 Y42.038 E3.08596
G1 X150.645 Y42.013 E3.09833
G1 X150.134 Y41.906 E3.11447
G1 X149.680 Y41.733 E3.12951
G1 X149.390 Y41.580 E3.13964
G1 X149.149 Y41.421 E3.14856
G1 X148.898 Y41.220 E3.15852
G1 X148.691 Y41.019 E3.16744
G1 X148.482 Y40.775 E3.17741
G1 X148.313 Y40.534 E3.18650
G1 X148.072 Y40.081 E3.20239
G1 X147.968 Y39.805 E3.21150
G1 X147.882 Y39.496 E3.22144
G1 X147.832 Y39.211 E3.23039
G1 X147.806 Y38.890 E3.24035
G1 X147.810 Y38.642 E3.24803
G1 X147.575 Y38.403 F7800.000
G1 X150.514 Y25.686 F7800.000
G1 X150.134 Y25.606 E3.26005 F1800.000
G1 X149.680 Y25.433 E3.27509
G1 X149.390 Y25.280 E3.28522
G1 X149.149 Y25.121 E3.29414
G1 X148.898 Y24.920 E3.30410
G1 X148.691 Y24.719 E3.31302
G1 X148.482 Y24.475 E3.32299
G1 X148.313 Y24.234 E3.33208
G1 X148.072 Y23.781 E3.34797
G1 X147.968 Y23.505 E3.35708
G1 X147.882 Y23.196 E3.36702
G1 X147.832 Y22.911 E3.37597
G1 X147.806 Y22.590 E3.38593
G1 X147.812 Y22.267 E3.39593
G1 X147.844 Y21.981 E3.40485
G1 X147.910 Y21.665 E3.41481
G1 X147.997 Y21.385 E3.42390
G1 X148.209 Y20.917 E3.43979
G1 X148.363 Y20.666 E3.44891
G1 X148.560 Y20.404 E3.45905
G1 X148.926 Y20.031 E3.47522
G1 X149.383 Y19.700 E3.49269
G1 X149.675 Y19.545 E3.50289
G1 X149.946 Y19.432 E3.51198
G1 X150.450 Y19.293 E3.52816
G1 X151.038 Y19.238 E3.54644
G1 X161.066 Y19.238 E3.85670 F1800.000
G1 X161.465 Y19.263 E3.86907
G1 X161.970 Y19.369 E3.88504
G1 X162.250 Y19.465 E3.89421
G1 X162.614 Y19.636 E3.90664
G1 X162.890 Y19.805 E3.91667
G1 X163.121 Y19.979 E3.92562
G1 X163.359 Y20.195 E3.93556
G1 X163.553 Y20.409 E3.94450
G1 X163.746 Y20.666 E3.95444
G1 X163.897 Y20.912 E3.96338
G1 X164.039 Y21.200 E3.97332
G1 X164.142 Y21.471 E3.98226
G1 X164.227 Y21.781 E3.99223
G1 X164.282 Y22.102 E4.00230
G1 X164.305 Y22.468 E4.01365
G1 X164.291 Y22.793 E4.02370
G1 X164.244 Y23.112 E4.03369
G1 X164.176 Y23.395 E4.04268
G1 X164.039 Y23.778 E4.05528
G1 X163.795 Y24.237 E4.07137
G1 X163.552 Y24.570 E4.08412
G1 X163.213 Y24.919 E4.09917
G1 X162.859 Y25.192 E4.11299
G1 X162.434 Y25.432 E4.12810
G1 X161.977 Y25.605 E4.14321
G1 X161.542 Y25.702 E4.15701
G1 X161.068 Y25.738 E4.17172
G1 X151.044 Y25.738 E4.48189
G1 X150.588 Y25.701 E4.49604
G1 X150.266 Y25.984 F7800.000
G1 X146.815 Y40.378 F7800.000
G1 X147.246 Y41.189 E4.52446 F1800.000
G1 X147.494 Y41.542 E4.53779
G1 X147.779 Y41.876 E4.55139
G1 X148.071 Y42.158 E4.56394
G1 X148.414 Y42.433 E4.57755
G1 X148.752 Y42.656 E4.59010
G1 X149.163 Y42.874 E4.60448
G1 X149.782 Y43.109 E4.62497
G1 X150.476 Y43.255 E4.64691
G1 X151.004 Y43.288 E4.66329
G1 X161.115 Y43.288 E4.97614
G1 X161.726 Y43.241 E4.99509
G1 X162.336 Y43.105 E5.01443
G1 X162.966 Y42.867 E5.03527
G1 X163.551 Y42.536 E5.05607
G1 X163.876 Y42.286 E5.06875
G1 X163.876 Y43.761 E5.11438
G1 X144.862 Y43.761 E5.70269
G1 X146.777 Y40.443 E5.82121
G1 X146.680 Y21.263 F7800.000
G1 X144.863 Y18.116 E5.93366 F1800.000
G1 X149.095 Y18.116 E6.06462
G1 X149.166 Y18.400 E6.07368
G1 X148.721 Y18.637 E6.08928
G1 X148.108 Y19.080 E6.11268
G1 X147.610 Y19.587 E6.13465
G1 X147.329 Y19.962 E6.14916
G1 X147.103 Y20.330 E6.16252
G1 X146.711 Y21.195 E6.19192
G1 X143.562 Y28.013 F7800.000
G1 X146.550 Y22.837 E6.37683 F1800.000
G1 X146.662 Y23.471 E6.39674
G1 X146.778 Y23.894 E6.41031
G1 X146.931 Y24.297 E6.42367
G1 X147.246 Y24.889 E6.44441
G1 X147.494 Y25.242 E6.45774
G1 X147.779 Y25.576 E6.47134
G1 X148.071 Y25.858 E6.48389
G1 X148.414 Y26.133 E6.49749
G1 X148.752 Y26.356 E6.51004
G1 X149.163 Y26.574 E6.52442
G1 X149.782 Y26.809 E6.54491
G1 X150.476 Y26.955 E6.56686
G1 X151.004 Y26.988 E6.58323
G1 X161.115 Y26.988 E6.89608
G1 X161.726 Y26.941 E6.91504
G1 X162.336 Y26.805 E6.93438
G1 X162.966 Y26.567 E6.95521
G1 X163.551 Y26.236 E6.97602
G1 X163.877 Y25.985 E6.98872
G1 X163.876 Y35.244 E7.27522
G1 X163.208 Y34.834 E7.29950
G1 X162.719 Y34.605 E7.31618
G1 X162.302 Y34.462 E7.32983
G1 X161.633 Y34.321 E7.35099
G1 X161.105 Y34.288 E7.36736
G1 X150.979 Y34.288 E7.68065
G1 X150.223 Y34.359 E7.70415
G1 X149.538 Y34.548 E7.72614
G1 X149.141 Y34.714 E7.73947
G1 X148.721 Y34.937 E7.75418
G1 X148.108 Y35.380 E7.77759
G1 X147.611 Y35.887 E7.79956
G1 X147.329 Y36.262 E7.81407
G1 X147.103 Y36.630 E7.82743
G1 X146.826 Y37.240 E7.84817
G1 X146.699 Y37.652 E7.86149
G1 X146.609 Y38.082 E7.87510
G1 X146.558 Y38.536 E7.88924
G1 X146.292 Y38.592 E7.89764
G1 X143.562 Y33.863 E8.06659
G1 X136.547 Y33.863 E8.28363
G1 X133.040 Y39.938 E8.50067
G1 X135.247 Y43.761 E8.63724
G1 X56.862 Y43.761 E11.06257
G1 X59.069 Y39.938 E11.19914
G1 X55.562 Y33.863 E11.41618
G1 X48.547 Y33.863 E11.63322
G1 X45.814 Y38.598 E11.80239
G1 X45.542 Y38.535 E11.81101
G1 X45.525 Y38.258 E11.81959
G1 X45.449 Y37.810 E11.83366
G1 X45.331 Y37.382 E11.84738
G1 X45.187 Y37.002 E11.85995
G1 X44.993 Y36.608 E11.87353
G1 X44.781 Y36.262 E11.88610
G1 X44.517 Y35.911 E11.89968
G1 X44.243 Y35.611 E11.91225
G1 X43.919 Y35.315 E11.92583
G1 X43.594 Y35.071 E11.93841
G1 X43.208 Y34.834 E11.95243
G1 X42.719 Y34.605 E11.96912
G1 X42.302 Y34.462 E11.98277
G1 X41.633 Y34.321 E12.00392
G1 X41.105 Y34.288 E12.02030
G1 X30.979 Y34.288 E12.33359
G1 X30.223 Y34.359 E12.35709
G1 X29.538 Y34.548 E12.37908
G1 X29.141 Y34.714 E12.39240
G1 X28.721 Y34.937 E12.40712
G1 X28.232 Y35.290 E12.42576
G1 X28.233 Y26.014 E12.71276
G1 X28.752 Y26.356 E12.73200
G1 X29.163 Y26.574 E12.74638
G1 X29.782 Y26.809 E12.76687
G1 X30.476 Y26.955 E12.78882
G1 X31.004 Y26.988 E12.80519
G1 X41.115 Y26.988 E13.11804
G1 X41.726 Y26.941 E13.13700
G1 X42.336 Y26.805 E13.15634
G1 X42.966 Y26.567 E13.17718
G1 X43.551 Y26.236 E13.19798
G1 X44.047 Y25.854 E13.21735
G1 X44.509 Y25.377 E13.23788
G1 X44.856 Y24.903 E13.25608
G1 X45.185 Y24.285 E13.27773
G1 X45.375 Y23.753 E13.29520
G1 X45.491 Y23.223 E13.31198
G1 X45.753 Y23.173 E13.32024
G1 X48.547 Y28.013 E13.49315
G1 X55.562 Y28.013 E13.71019
G1 X59.069 Y21.938 E13.92723
G1 X56.862 Y18.116 E14.06380
G1 X135.247 Y18.116 E16.48912
G1 X133.040 Y21.938 E16.62567
G1 X136.547 Y28.013 E16.84271
G1 X143.487 Y28.013 E17.05743
G1 E15.05743 F2400.00000
G92 E0
G1 X162.942 Y18.409 F7800.000
G1 E2.00000 F2400.00000
G1 X163.008 Y18.116 E2.00930 F1800.000
G1 X163.877 Y18.116 E2.03621
G1 X163.877 Y18.945 E2.06185
G1 X163.208 Y18.534 E2.08616
G1 X163.010 Y18.441 E2.09291
G1 E0.09291 F2400.00000
G92 E0
G1 X47.247 Y18.115 F7800.000
G1 E2.00000 F2400.00000
G1 X45.411 Y21.295 E2.11358 F1800.000
G1 X45.187 Y20.702 E2.13320
G1 X44.993 Y20.308 E2.14677
G1 X44.781 Y19.962 E2.15935
G1 X44.517 Y19.611 E2.17292
G1 X44.243 Y19.311 E2.18550
G1 X43.919 Y19.015 E2.19907
G1 X43.594 Y18.771 E2.21165
G1 X43.208 Y18.534 E2.22567
G1 X42.941 Y18.409 E2.23479
G1 X43.006 Y18.115 E2.24409
G1 X47.172 Y18.115 E2.37297
G1 X29.167 Y18.400 F7800.000
G1 X28.721 Y18.637 E2.38860 F1800.000
G1 X28.233 Y18.990 E2.40722
G1 X28.233 Y18.115 E2.43426
G1 X29.096 Y18.115 E2.46095
G1 X29.149 Y18.327 E2.46770
G1 E0.46770 F2400.00000
G92 E0
G1 X28.232 Y42.314 F7800.000
G1 E2.00000 F2400.00000
G1 X28.752 Y42.656 E2.01927 F1800.000
G1 X29.163 Y42.874 E2.03365
G1 X29.782 Y43.109 E2.05414
G1 X30.476 Y43.255 E2.07609
G1 X31.004 Y43.288 E2.09246
G1 X41.115 Y43.288 E2.40531
G1 X41.726 Y43.241 E2.42426
G1 X42.336 Y43.105 E2.44360
G1 X42.966 Y42.867 E2.46444
G1 X43.551 Y42.536 E2.48524
G1 X44.047 Y42.154 E2.50462
G1 X44.509 Y41.677 E2.52515
G1 X44.856 Y41.203 E2.54334
G1 X45.294 Y40.378 E2.57223
G1 X47.247 Y43.761 E2.69307
G1 X28.232 Y43.761 E3.28141
G1 X28.232 Y42.389 E3.32385
G1 E1.32385 F2400.00000
G92 E0
G1 X45.762 Y39.938 F7800.000
G1 E2.00000 F2400.00000
G1 X48.329 Y44.385 E2.15890 F1800.000
G1 X28.100 Y44.385 E2.78481
G1 X27.908 Y44.357 E2.79082
G1 X27.820 Y44.315 E2.79385
G1 X27.726 Y44.236 E2.79765
G1 X27.644 Y44.105 E2.80242
G1 X27.607 Y43.892 E2.80910
G1 X27.607 Y41.072 E2.89636
G1 X27.869 Y40.989 E2.90486
G1 X27.988 Y41.158 E2.91124
G1 X28.235 Y41.448 E2.92302
G1 X28.484 Y41.689 E2.93376
G1 X28.782 Y41.927 E2.94554
G1 X29.071 Y42.118 E2.95628
G1 X29.421 Y42.304 E2.96853
G1 X29.958 Y42.507 E2.98630
G1 X30.560 Y42.634 E3.00534
G1 X31.024 Y42.663 E3.01971
G1 X41.092 Y42.663 E3.33122
G1 X41.634 Y42.622 E3.34806
G1 X42.157 Y42.505 E3.36462
G1 X42.700 Y42.299 E3.38260
G1 X43.205 Y42.014 E3.40056
G1 X43.630 Y41.686 E3.41715
G1 X44.030 Y41.273 E3.43495
G1 X44.326 Y40.870 E3.45041
G1 X44.612 Y40.331 E3.46929
G1 X44.776 Y39.874 E3.48432
G1 X44.859 Y39.531 E3.49525
G1 X44.914 Y39.151 E3.50711
G1 X44.931 Y38.762 E3.51917
G1 X44.904 Y38.330 E3.53256
G1 X44.838 Y37.945 E3.54463
G1 X44.736 Y37.576 E3.55647
G1 X44.613 Y37.251 E3.56723
G1 X44.445 Y36.910 E3.57899
G1 X44.263 Y36.614 E3.58975
G1 X44.035 Y36.310 E3.60151
G1 X43.801 Y36.053 E3.61227
G1 X43.520 Y35.797 E3.62402
G1 X43.242 Y35.588 E3.63478
G1 X42.911 Y35.385 E3.64681
G1 X42.485 Y35.185 E3.66137
G1 X42.136 Y35.065 E3.67278
G1 X41.549 Y34.942 E3.69134
G1 X41.085 Y34.913 E3.70571
G1 X31.009 Y34.913 E4.01749
G1 X30.337 Y34.976 E4.03838
G1 X29.742 Y35.140 E4.05746
G1 X29.408 Y35.279 E4.06867
G1 X29.052 Y35.468 E4.08113
G1 X28.517 Y35.856 E4.10157
G1 X28.085 Y36.295 E4.12064
G1 X27.864 Y36.590 E4.13204
G1 X27.608 Y36.504 E4.14040
G1 X27.608 Y24.773 E4.50338
G1 X27.870 Y24.691 E4.51187
G1 X27.988 Y24.858 E4.51822
G1 X28.235 Y25.148 E4.53000
G1 X28.484 Y25.389 E4.54073
G1 X28.782 Y25.627 E4.55252
G1 X29.071 Y25.818 E4.56325
G1 X29.421 Y26.004 E4.57551
G1 X29.958 Y26.207 E4.59327
G1 X30.560 Y26.334 E4.61232
G1 X31.024 Y26.363 E4.62669
G1 X41.092 Y26.363 E4.93820
G1 X41.634 Y26.322 E4.95503
G1 X42.157 Y26.205 E4.97160
G1 X42.700 Y25.999 E4.98957
G1 X43.205 Y25.714 E5.00753
G1 X43.630 Y25.386 E5.02413
G1 X44.030 Y24.973 E5.04192
G1 X44.326 Y24.570 E5.05739
G1 X44.612 Y24.031 E5.07626
G1 X44.776 Y23.574 E5.09130
G1 X44.859 Y23.231 E5.10222
G1 X44.914 Y22.851 E5.11408
G1 X44.931 Y22.462 E5.12614
G1 X44.904 Y22.030 E5.13953
G1 X44.838 Y21.645 E5.15160
G1 X44.736 Y21.276 E5.16345
G1 X44.613 Y20.951 E5.17421
G1 X44.445 Y20.610 E5.18596
G1 X44.263 Y20.314 E5.19672
G1 X44.035 Y20.010 E5.20848
G1 X43.801 Y19.753 E5.21924
G1 X43.520 Y19.497 E5.23100
G1 X43.242 Y19.288 E5.24176
G1 X42.911 Y19.085 E5.25379
G1 X42.485 Y18.885 E5.26835
G1 X42.136 Y18.765 E5.27975
G1 X41.549 Y18.642 E5.29832
G1 X41.085 Y18.613 E5.31269
G1 X31.009 Y18.613 E5.62447
G1 X30.337 Y18.676 E5.64536
G1 X29.742 Y18.840 E5.66444
G1 X29.408 Y18.979 E5.67564
G1 X29.052 Y19.168 E5.68811
G1 X28.517 Y19.556 E5.70855
G1 X28.085 Y19.995 E5.72761
G1 X27.864 Y20.289 E5.73898
G1 X27.608 Y20.203 E5.74734
G1 X27.608 Y17.944 E5.81726
G1 X27.641 Y17.776 E5.82256
G1 X27.772 Y17.596 E5.82944
G1 X27.903 Y17.521 E5.83411
G1 X28.100 Y17.491 E5.84028
G1 X48.329 Y17.491 E6.46620
G1 X45.762 Y21.938 E6.62509
G1 X48.908 Y27.388 E6.81980
G1 X55.201 Y27.388 E7.01452
G1 X58.348 Y21.938 E7.20923
G1 X55.780 Y17.491 E7.36812
G1 X136.329 Y17.491 E9.86042
G1 X133.762 Y21.938 E10.01930
G1 X136.908 Y27.388 E10.21402
G1 X143.201 Y27.388 E10.40873
G1 X146.348 Y21.938 E10.60344
G1 X143.780 Y17.491 E10.76232
G1 X164.028 Y17.491 E11.38882
G1 X164.157 Y17.507 E11.39284
G1 X164.304 Y17.572 E11.39782
G1 X164.421 Y17.688 E11.40291
G1 X164.491 Y17.865 E11.40879
G1 X164.502 Y20.205 E11.48119
G1 X164.246 Y20.290 E11.48955
G1 X164.035 Y20.010 E11.50040
G1 X163.801 Y19.753 E11.51116
G1 X163.520 Y19.497 E11.52291
G1 X163.242 Y19.288 E11.53367
G1 X162.911 Y19.085 E11.54571
G1 X162.485 Y18.885 E11.56026
G1 X162.136 Y18.765 E11.57167
G1 X161.549 Y18.642 E11.59023
G1 X161.085 Y18.613 E11.60460
G1 X151.009 Y18.613 E11.91638
G1 X150.337 Y18.676 E11.93727
G1 X149.742 Y18.840 E11.95636
G1 X149.408 Y18.979 E11.96756
G1 X149.052 Y19.168 E11.98002
G1 X148.517 Y19.556 E12.00046
G1 X148.085 Y19.995 E12.01953
G1 X147.846 Y20.314 E12.03186
G1 X147.656 Y20.623 E12.04309
G1 X147.412 Y21.163 E12.06141
G1 X147.305 Y21.509 E12.07262
